(Generated by PartKam Version 0.05)

G20 G90 G40

(pocket 1)
G0 Z0.2
T0 M6
G17
M3
G0 X10.9312 Y0.3354
G1 Z-0.1 F30
G3 X11.0562 Y0.4604 I0 J0.125 F60
G1 X11.0562 Y4.538
G3 X10.8208 Y4.5967 I-0.125 J0
G1 X10.5207 Y4.0322
G1 X10.2999 Y4.1496
G1 X10.4416 Y4.416
G3 X10.4562 Y4.4747 I-0.1104 J0.0587
G3 X10.2545 Y4.5734 I-0.125 J0
G1 X7.6885 Y2.5789
G3 X7.6402 Y2.4802 I0.0767 J-0.0987
G3 X7.6665 Y2.4035 I0.125 J0
G1 X7.8199 Y2.2061
G1 X7.6225 Y2.0527
G1 X7.4538 Y2.2698
G3 X7.3072 Y2.3086 I-0.0987 J-0.0767
G1 X6.4063 Y1.9354
G1 X0.4312 Y1.9354
G3 X0.3062 Y1.8104 I0 J-0.125
G1 X0.3062 Y0.4604
G3 X0.4312 Y0.3354 I0.125 J0
G1 X10.9312 Y0.3354
G0 Z0.2
G0 X6.3537 Y2.3466
G1 Z-0.1 F30
G1 X6.2734 Y2.3354 F60
G1 X6.3268 Y2.3354
G1 X6.3537 Y2.3466
G1 X6.3466 Y2.2354 F60
G1 X7.1141 Y2.5533 F60
G1 X4.8285 Y2.2354
G1 X6.3466 Y2.2354
G0 Z0.2
G0 X10.9376 Y5.0294
G1 Z-0.1 F30
G1 X10.5413 Y5.0226 F60
G1 X10.3827 Y4.8965
G2 X10.5998 Y4.8041 I-0.0514 J-0.4219
G2 X10.9378 Y4.9629 I0.3314 J-0.2661
G1 X10.9376 Y5.0294
G0 Z0.2
G0 X11.0373 Y5.1312
G1 Z-0.1 F30
G1 X10.5057 Y5.122 F60
G1 X7.5298 Y2.7576
G2 X7.3724 Y2.6902 I-0.2022 J0.2545
G1 X3.7804 Y2.1906
G2 X3.7356 Y2.1875 I-0.0448 J0.3219
G1 X0.3145 Y2.1875
G1 X0.3145 Y2.1137
G2 X0.4312 Y2.1354 I0.1167 J-0.3033
G1 X6.3665 Y2.1354
G1 X7.2307 Y2.4934
G2 X7.4412 Y2.5065 I0.1244 J-0.3003
G2 X7.5657 Y2.7368 I0.3239 J-0.0263
G1 X10.1318 Y4.7313
G2 X10.6143 Y4.6343 I0.1994 J-0.2566
G1 X10.6442 Y4.6906
G2 X11.0382 Y4.8449 I0.287 J-0.1526
G1 X11.0373 Y5.1312
G1 X11.137 Y5.2329 F60
G1 X10.47 Y5.2214 F60
G1 X7.4676 Y2.8359
G2 X7.3586 Y2.7892 I-0.14 J0.1762
G1 X3.7666 Y2.2896
G2 X3.7356 Y2.2875 I-0.031 J0.2229
G1 X0.2145 Y2.2875
G1 X0.2145 Y1.8709
G2 X0.4312 Y2.0354 I0.2167 J-0.0605
G1 X6.3864 Y2.0354
G1 X7.269 Y2.401
G2 X7.5327 Y2.3312 I0.0861 J-0.2079
G1 X7.6401 Y2.193
G1 X7.6796 Y2.2237
G1 X7.5875 Y2.3421
G2 X7.5402 Y2.4802 I0.1776 J0.1381
G2 X7.6271 Y2.6579 I0.225 J0
G1 X10.1931 Y4.6523
G2 X10.5562 Y4.4747 I0.1381 J-0.1776
G2 X10.5299 Y4.369 I-0.225 J0
G1 X10.4352 Y4.1909
G1 X10.4793 Y4.1674
G1 X10.7325 Y4.6436
G2 X11.1389 Y4.6245 I0.1987 J-0.1056
G1 X11.137 Y5.2329
G0 Z0.2
G0 X11.1519 Y0.4169
G1 Z-0.1 F30
G2 X11.0721 Y0.2851 I-0.2208 J0.0435 F60
G1 X11.1523 Y0.2851
G1 X11.1519 Y0.4169
G0 Z0.2
G0 X0.2902 Y0.2851
G1 Z-0.1 F30
G2 X0.2145 Y0.3999 I0.141 J0.1754 F60
G1 X0.2145 Y0.2851
G1 X0.2902 Y0.2851
G0 Z0.2
G0 X0.1145 Y0.1851
G1 Z-0.1 F30
G1 X11.2527 Y0.1851 F60
G1 X11.2367 Y5.3346
G1 X10.4344 Y5.3208
G1 X7.4054 Y2.9142
G2 X7.3449 Y2.8883 I-0.0778 J0.0979
G1 X3.7528 Y2.3887
G2 X3.7356 Y2.3875 I-0.0172 J0.1238
G1 X0.1145 Y2.3875
G1 X0.1145 Y0.1851
G0 Z0.2
G0 X10.9312 Y0.3354
G1 Z-0.2 F30
G3 X11.0562 Y0.4604 I0 J0.125 F60
G1 X11.0562 Y4.538
G3 X10.8208 Y4.5967 I-0.125 J0
G1 X10.5207 Y4.0322
G1 X10.2999 Y4.1496
G1 X10.4416 Y4.416
G3 X10.4562 Y4.4747 I-0.1104 J0.0587
G3 X10.2545 Y4.5734 I-0.125 J0
G1 X7.6885 Y2.5789
G3 X7.6402 Y2.4802 I0.0767 J-0.0987
G3 X7.6665 Y2.4035 I0.125 J0
G1 X7.8199 Y2.2061
G1 X7.6225 Y2.0527
G1 X7.4538 Y2.2698
G3 X7.3072 Y2.3086 I-0.0987 J-0.0767
G1 X6.4063 Y1.9354
G1 X0.4312 Y1.9354
G3 X0.3062 Y1.8104 I0 J-0.125
G1 X0.3062 Y0.4604
G3 X0.4312 Y0.3354 I0.125 J0
G1 X10.9312 Y0.3354
G0 Z0.2
G0 X6.3537 Y2.3466
G1 Z-0.2 F30
G1 X6.2734 Y2.3354 F60
G1 X6.3268 Y2.3354
G1 X6.3537 Y2.3466
G1 X6.3466 Y2.2354 F60
G1 X7.1141 Y2.5533 F60
G1 X4.8285 Y2.2354
G1 X6.3466 Y2.2354
G0 Z0.2
G0 X10.9376 Y5.0294
G1 Z-0.2 F30
G1 X10.5413 Y5.0226 F60
G1 X10.3827 Y4.8965
G2 X10.5998 Y4.8041 I-0.0514 J-0.4219
G2 X10.9378 Y4.9629 I0.3314 J-0.2661
G1 X10.9376 Y5.0294
G0 Z0.2
G0 X11.0373 Y5.1312
G1 Z-0.2 F30
G1 X10.5057 Y5.122 F60
G1 X7.5298 Y2.7576
G2 X7.3724 Y2.6902 I-0.2022 J0.2545
G1 X3.7804 Y2.1906
G2 X3.7356 Y2.1875 I-0.0448 J0.3219
G1 X0.3145 Y2.1875
G1 X0.3145 Y2.1137
G2 X0.4312 Y2.1354 I0.1167 J-0.3033
G1 X6.3665 Y2.1354
G1 X7.2307 Y2.4934
G2 X7.4412 Y2.5065 I0.1244 J-0.3003
G2 X7.5657 Y2.7368 I0.3239 J-0.0263
G1 X10.1318 Y4.7313
G2 X10.6143 Y4.6343 I0.1994 J-0.2566
G1 X10.6442 Y4.6906
G2 X11.0382 Y4.8449 I0.287 J-0.1526
G1 X11.0373 Y5.1312
G1 X11.137 Y5.2329 F60
G1 X10.47 Y5.2214 F60
G1 X7.4676 Y2.8359
G2 X7.3586 Y2.7892 I-0.14 J0.1762
G1 X3.7666 Y2.2896
G2 X3.7356 Y2.2875 I-0.031 J0.2229
G1 X0.2145 Y2.2875
G1 X0.2145 Y1.8709
G2 X0.4312 Y2.0354 I0.2167 J-0.0605
G1 X6.3864 Y2.0354
G1 X7.269 Y2.401
G2 X7.5327 Y2.3312 I0.0861 J-0.2079
G1 X7.6401 Y2.193
G1 X7.6796 Y2.2237
G1 X7.5875 Y2.3421
G2 X7.5402 Y2.4802 I0.1776 J0.1381
G2 X7.6271 Y2.6579 I0.225 J0
G1 X10.1931 Y4.6523
G2 X10.5562 Y4.4747 I0.1381 J-0.1776
G2 X10.5299 Y4.369 I-0.225 J0
G1 X10.4352 Y4.1909
G1 X10.4793 Y4.1674
G1 X10.7325 Y4.6436
G2 X11.1389 Y4.6245 I0.1987 J-0.1056
G1 X11.137 Y5.2329
G0 Z0.2
G0 X11.1519 Y0.4169
G1 Z-0.2 F30
G2 X11.0721 Y0.2851 I-0.2208 J0.0435 F60
G1 X11.1523 Y0.2851
G1 X11.1519 Y0.4169
G0 Z0.2
G0 X0.2902 Y0.2851
G1 Z-0.2 F30
G2 X0.2145 Y0.3999 I0.141 J0.1754 F60
G1 X0.2145 Y0.2851
G1 X0.2902 Y0.2851
G0 Z0.2
G0 X0.1145 Y0.1851
G1 Z-0.2 F30
G1 X11.2527 Y0.1851 F60
G1 X11.2367 Y5.3346
G1 X10.4344 Y5.3208
G1 X7.4054 Y2.9142
G2 X7.3449 Y2.8883 I-0.0778 J0.0979
G1 X3.7528 Y2.3887
G2 X3.7356 Y2.3875 I-0.0172 J0.1238
G1 X0.1145 Y2.3875
G1 X0.1145 Y0.1851
G0 Z0.2
G0 X10.9312 Y0.3354
G1 Z-0.3 F30
G3 X11.0562 Y0.4604 I0 J0.125 F60
G1 X11.0562 Y4.538
G3 X10.8208 Y4.5967 I-0.125 J0
G1 X10.5207 Y4.0322
G1 X10.2999 Y4.1496
G1 X10.4416 Y4.416
G3 X10.4562 Y4.4747 I-0.1104 J0.0587
G3 X10.2545 Y4.5734 I-0.125 J0
G1 X7.6885 Y2.5789
G3 X7.6402 Y2.4802 I0.0767 J-0.0987
G3 X7.6665 Y2.4035 I0.125 J0
G1 X7.8199 Y2.2061
G1 X7.6225 Y2.0527
G1 X7.4538 Y2.2698
G3 X7.3072 Y2.3086 I-0.0987 J-0.0767
G1 X6.4063 Y1.9354
G1 X0.4312 Y1.9354
G3 X0.3062 Y1.8104 I0 J-0.125
G1 X0.3062 Y0.4604
G3 X0.4312 Y0.3354 I0.125 J0
G1 X10.9312 Y0.3354
G0 Z0.2
G0 X6.3537 Y2.3466
G1 Z-0.3 F30
G1 X6.2734 Y2.3354 F60
G1 X6.3268 Y2.3354
G1 X6.3537 Y2.3466
G1 X6.3466 Y2.2354 F60
G1 X7.1141 Y2.5533 F60
G1 X4.8285 Y2.2354
G1 X6.3466 Y2.2354
G0 Z0.2
G0 X10.9376 Y5.0294
G1 Z-0.3 F30
G1 X10.5413 Y5.0226 F60
G1 X10.3827 Y4.8965
G2 X10.5998 Y4.8041 I-0.0514 J-0.4219
G2 X10.9378 Y4.9629 I0.3314 J-0.2661
G1 X10.9376 Y5.0294
G0 Z0.2
G0 X11.0373 Y5.1312
G1 Z-0.3 F30
G1 X10.5057 Y5.122 F60
G1 X7.5298 Y2.7576
G2 X7.3724 Y2.6902 I-0.2022 J0.2545
G1 X3.7804 Y2.1906
G2 X3.7356 Y2.1875 I-0.0448 J0.3219
G1 X0.3145 Y2.1875
G1 X0.3145 Y2.1137
G2 X0.4312 Y2.1354 I0.1167 J-0.3033
G1 X6.3665 Y2.1354
G1 X7.2307 Y2.4934
G2 X7.4412 Y2.5065 I0.1244 J-0.3003
G2 X7.5657 Y2.7368 I0.3239 J-0.0263
G1 X10.1318 Y4.7313
G2 X10.6143 Y4.6343 I0.1994 J-0.2566
G1 X10.6442 Y4.6906
G2 X11.0382 Y4.8449 I0.287 J-0.1526
G1 X11.0373 Y5.1312
G1 X11.137 Y5.2329 F60
G1 X10.47 Y5.2214 F60
G1 X7.4676 Y2.8359
G2 X7.3586 Y2.7892 I-0.14 J0.1762
G1 X3.7666 Y2.2896
G2 X3.7356 Y2.2875 I-0.031 J0.2229
G1 X0.2145 Y2.2875
G1 X0.2145 Y1.8709
G2 X0.4312 Y2.0354 I0.2167 J-0.0605
G1 X6.3864 Y2.0354
G1 X7.269 Y2.401
G2 X7.5327 Y2.3312 I0.0861 J-0.2079
G1 X7.6401 Y2.193
G1 X7.6796 Y2.2237
G1 X7.5875 Y2.3421
G2 X7.5402 Y2.4802 I0.1776 J0.1381
G2 X7.6271 Y2.6579 I0.225 J0
G1 X10.1931 Y4.6523
G2 X10.5562 Y4.4747 I0.1381 J-0.1776
G2 X10.5299 Y4.369 I-0.225 J0
G1 X10.4352 Y4.1909
G1 X10.4793 Y4.1674
G1 X10.7325 Y4.6436
G2 X11.1389 Y4.6245 I0.1987 J-0.1056
G1 X11.137 Y5.2329
G0 Z0.2
G0 X11.1519 Y0.4169
G1 Z-0.3 F30
G2 X11.0721 Y0.2851 I-0.2208 J0.0435 F60
G1 X11.1523 Y0.2851
G1 X11.1519 Y0.4169
G0 Z0.2
G0 X0.2902 Y0.2851
G1 Z-0.3 F30
G2 X0.2145 Y0.3999 I0.141 J0.1754 F60
G1 X0.2145 Y0.2851
G1 X0.2902 Y0.2851
G0 Z0.2
G0 X0.1145 Y0.1851
G1 Z-0.3 F30
G1 X11.2527 Y0.1851 F60
G1 X11.2367 Y5.3346
G1 X10.4344 Y5.3208
G1 X7.4054 Y2.9142
G2 X7.3449 Y2.8883 I-0.0778 J0.0979
G1 X3.7528 Y2.3887
G2 X3.7356 Y2.3875 I-0.0172 J0.1238
G1 X0.1145 Y2.3875
G1 X0.1145 Y0.1851
G0 Z0.2
G0 X10.9312 Y0.3354
G1 Z-0.4 F30
G3 X11.0562 Y0.4604 I0 J0.125 F60
G1 X11.0562 Y4.538
G3 X10.8208 Y4.5967 I-0.125 J0
G1 X10.5207 Y4.0322
G1 X10.2999 Y4.1496
G1 X10.4416 Y4.416
G3 X10.4562 Y4.4747 I-0.1104 J0.0587
G3 X10.2545 Y4.5734 I-0.125 J0
G1 X7.6885 Y2.5789
G3 X7.6402 Y2.4802 I0.0767 J-0.0987
G3 X7.6665 Y2.4035 I0.125 J0
G1 X7.8199 Y2.2061
G1 X7.6225 Y2.0527
G1 X7.4538 Y2.2698
G3 X7.3072 Y2.3086 I-0.0987 J-0.0767
G1 X6.4063 Y1.9354
G1 X0.4312 Y1.9354
G3 X0.3062 Y1.8104 I0 J-0.125
G1 X0.3062 Y0.4604
G3 X0.4312 Y0.3354 I0.125 J0
G1 X10.9312 Y0.3354
G0 Z0.2
G0 X6.3537 Y2.3466
G1 Z-0.4 F30
G1 X6.2734 Y2.3354 F60
G1 X6.3268 Y2.3354
G1 X6.3537 Y2.3466
G1 X6.3466 Y2.2354 F60
G1 X7.1141 Y2.5533 F60
G1 X4.8285 Y2.2354
G1 X6.3466 Y2.2354
G0 Z0.2
G0 X10.9376 Y5.0294
G1 Z-0.4 F30
G1 X10.5413 Y5.0226 F60
G1 X10.3827 Y4.8965
G2 X10.5998 Y4.8041 I-0.0514 J-0.4219
G2 X10.9378 Y4.9629 I0.3314 J-0.2661
G1 X10.9376 Y5.0294
G0 Z0.2
G0 X11.0373 Y5.1312
G1 Z-0.4 F30
G1 X10.5057 Y5.122 F60
G1 X7.5298 Y2.7576
G2 X7.3724 Y2.6902 I-0.2022 J0.2545
G1 X3.7804 Y2.1906
G2 X3.7356 Y2.1875 I-0.0448 J0.3219
G1 X0.3145 Y2.1875
G1 X0.3145 Y2.1137
G2 X0.4312 Y2.1354 I0.1167 J-0.3033
G1 X6.3665 Y2.1354
G1 X7.2307 Y2.4934
G2 X7.4412 Y2.5065 I0.1244 J-0.3003
G2 X7.5657 Y2.7368 I0.3239 J-0.0263
G1 X10.1318 Y4.7313
G2 X10.6143 Y4.6343 I0.1994 J-0.2566
G1 X10.6442 Y4.6906
G2 X11.0382 Y4.8449 I0.287 J-0.1526
G1 X11.0373 Y5.1312
G1 X11.137 Y5.2329 F60
G1 X10.47 Y5.2214 F60
G1 X7.4676 Y2.8359
G2 X7.3586 Y2.7892 I-0.14 J0.1762
G1 X3.7666 Y2.2896
G2 X3.7356 Y2.2875 I-0.031 J0.2229
G1 X0.2145 Y2.2875
G1 X0.2145 Y1.8709
G2 X0.4312 Y2.0354 I0.2167 J-0.0605
G1 X6.3864 Y2.0354
G1 X7.269 Y2.401
G2 X7.5327 Y2.3312 I0.0861 J-0.2079
G1 X7.6401 Y2.193
G1 X7.6796 Y2.2237
G1 X7.5875 Y2.3421
G2 X7.5402 Y2.4802 I0.1776 J0.1381
G2 X7.6271 Y2.6579 I0.225 J0
G1 X10.1931 Y4.6523
G2 X10.5562 Y4.4747 I0.1381 J-0.1776
G2 X10.5299 Y4.369 I-0.225 J0
G1 X10.4352 Y4.1909
G1 X10.4793 Y4.1674
G1 X10.7325 Y4.6436
G2 X11.1389 Y4.6245 I0.1987 J-0.1056
G1 X11.137 Y5.2329
G0 Z0.2
G0 X11.1519 Y0.4169
G1 Z-0.4 F30
G2 X11.0721 Y0.2851 I-0.2208 J0.0435 F60
G1 X11.1523 Y0.2851
G1 X11.1519 Y0.4169
G0 Z0.2
G0 X0.2902 Y0.2851
G1 Z-0.4 F30
G2 X0.2145 Y0.3999 I0.141 J0.1754 F60
G1 X0.2145 Y0.2851
G1 X0.2902 Y0.2851
G0 Z0.2
G0 X0.1145 Y0.1851
G1 Z-0.4 F30
G1 X11.2527 Y0.1851 F60
G1 X11.2367 Y5.3346
G1 X10.4344 Y5.3208
G1 X7.4054 Y2.9142
G2 X7.3449 Y2.8883 I-0.0778 J0.0979
G1 X3.7528 Y2.3887
G2 X3.7356 Y2.3875 I-0.0172 J0.1238
G1 X0.1145 Y2.3875
G1 X0.1145 Y0.1851
G0 Z0.2
G0 X10.9312 Y0.3354
G1 Z-0.45 F30
G3 X11.0562 Y0.4604 I0 J0.125 F60
G1 X11.0562 Y4.538
G3 X10.8208 Y4.5967 I-0.125 J0
G1 X10.5207 Y4.0322
G1 X10.2999 Y4.1496
G1 X10.4416 Y4.416
G3 X10.4562 Y4.4747 I-0.1104 J0.0587
G3 X10.2545 Y4.5734 I-0.125 J0
G1 X7.6885 Y2.5789
G3 X7.6402 Y2.4802 I0.0767 J-0.0987
G3 X7.6665 Y2.4035 I0.125 J0
G1 X7.8199 Y2.2061
G1 X7.6225 Y2.0527
G1 X7.4538 Y2.2698
G3 X7.3072 Y2.3086 I-0.0987 J-0.0767
G1 X6.4063 Y1.9354
G1 X0.4312 Y1.9354
G3 X0.3062 Y1.8104 I0 J-0.125
G1 X0.3062 Y0.4604
G3 X0.4312 Y0.3354 I0.125 J0
G1 X10.9312 Y0.3354
G0 Z0.2
G0 X6.3537 Y2.3466
G1 Z-0.45 F30
G1 X6.2734 Y2.3354 F60
G1 X6.3268 Y2.3354
G1 X6.3537 Y2.3466
G1 X6.3466 Y2.2354 F60
G1 X7.1141 Y2.5533 F60
G1 X4.8285 Y2.2354
G1 X6.3466 Y2.2354
G0 Z0.2
G0 X10.9376 Y5.0294
G1 Z-0.45 F30
G1 X10.5413 Y5.0226 F60
G1 X10.3827 Y4.8965
G2 X10.5998 Y4.8041 I-0.0514 J-0.4219
G2 X10.9378 Y4.9629 I0.3314 J-0.2661
G1 X10.9376 Y5.0294
G0 Z0.2
G0 X11.0373 Y5.1312
G1 Z-0.45 F30
G1 X10.5057 Y5.122 F60
G1 X7.5298 Y2.7576
G2 X7.3724 Y2.6902 I-0.2022 J0.2545
G1 X3.7804 Y2.1906
G2 X3.7356 Y2.1875 I-0.0448 J0.3219
G1 X0.3145 Y2.1875
G1 X0.3145 Y2.1137
G2 X0.4312 Y2.1354 I0.1167 J-0.3033
G1 X6.3665 Y2.1354
G1 X7.2307 Y2.4934
G2 X7.4412 Y2.5065 I0.1244 J-0.3003
G2 X7.5657 Y2.7368 I0.3239 J-0.0263
G1 X10.1318 Y4.7313
G2 X10.6143 Y4.6343 I0.1994 J-0.2566
G1 X10.6442 Y4.6906
G2 X11.0382 Y4.8449 I0.287 J-0.1526
G1 X11.0373 Y5.1312
G1 X11.137 Y5.2329 F60
G1 X10.47 Y5.2214 F60
G1 X7.4676 Y2.8359
G2 X7.3586 Y2.7892 I-0.14 J0.1762
G1 X3.7666 Y2.2896
G2 X3.7356 Y2.2875 I-0.031 J0.2229
G1 X0.2145 Y2.2875
G1 X0.2145 Y1.8709
G2 X0.4312 Y2.0354 I0.2167 J-0.0605
G1 X6.3864 Y2.0354
G1 X7.269 Y2.401
G2 X7.5327 Y2.3312 I0.0861 J-0.2079
G1 X7.6401 Y2.193
G1 X7.6796 Y2.2237
G1 X7.5875 Y2.3421
G2 X7.5402 Y2.4802 I0.1776 J0.1381
G2 X7.6271 Y2.6579 I0.225 J0
G1 X10.1931 Y4.6523
G2 X10.5562 Y4.4747 I0.1381 J-0.1776
G2 X10.5299 Y4.369 I-0.225 J0
G1 X10.4352 Y4.1909
G1 X10.4793 Y4.1674
G1 X10.7325 Y4.6436
G2 X11.1389 Y4.6245 I0.1987 J-0.1056
G1 X11.137 Y5.2329
G0 Z0.2
G0 X11.1519 Y0.4169
G1 Z-0.45 F30
G2 X11.0721 Y0.2851 I-0.2208 J0.0435 F60
G1 X11.1523 Y0.2851
G1 X11.1519 Y0.4169
G0 Z0.2
G0 X0.2902 Y0.2851
G1 Z-0.45 F30
G2 X0.2145 Y0.3999 I0.141 J0.1754 F60
G1 X0.2145 Y0.2851
G1 X0.2902 Y0.2851
G0 Z0.2
G0 X0.1145 Y0.1851
G1 Z-0.45 F30
G1 X11.2527 Y0.1851 F60
G1 X11.2367 Y5.3346
G1 X10.4344 Y5.3208
G1 X7.4054 Y2.9142
G2 X7.3449 Y2.8883 I-0.0778 J0.0979
G1 X3.7528 Y2.3887
G2 X3.7356 Y2.3875 I-0.0172 J0.1238
G1 X0.1145 Y2.3875
G1 X0.1145 Y0.1851

(profile 2)
G0 Z0.2
G0 X0.0562 Y-0.0396
G1 Z-0.1 F30
G1 X11.3062 Y-0.0396 F60
G3 X11.4312 Y0.0854 I0 J0.125
G1 X11.4312 Y4.8354
G3 X11.4029 Y5.0214 I-0.625 J0
G3 X11.3206 Y5.1904 I-0.5967 J-0.1859
G3 X11.1916 Y5.3274 I-0.5144 J-0.355
G3 X11.0278 Y5.4198 I-0.3855 J-0.492
G3 X10.844 Y5.4593 I-0.2217 J-0.5844
G3 X10.6567 Y5.4423 I-0.0378 J-0.6239
G3 X10.4829 Y5.3703 I0.1495 J-0.6069
G3 X10.3384 Y5.2499 I0.3233 J-0.5349
G2 X9.41 Y4.3369 I-7.0997 J6.2911
G2 X8.4053 Y3.5938 I-5.6902 J6.6426
G2 X7.3049 Y3.0015 I-4.6855 J7.3857
G2 X6.0834 Y2.5505 I-3.8883 J8.6525
G2 X4.8116 Y2.2711 I-2.6667 J9.1034
G2 X3.5656 Y2.1761 I-1.2862 J8.6515
G2 X2.3187 Y2.2596 I-0.0402 J8.7465
G2 X1.0444 Y2.5274 I1.3087 J9.3953
G3 X0.7782 Y2.56 I-0.2383 J-0.8419
G3 X0.5146 Y2.5104 I0.028 J-0.8746
G3 X0.2784 Y2.3833 I0.2916 J-0.825
G3 X0.0918 Y2.1906 I0.5278 J-0.6979
G3 X-0.0277 Y1.9505 I0.7144 J-0.5052
G3 X-0.0688 Y1.6854 I0.8339 J-0.2651
G1 X-0.0688 Y0.0854
G3 X0.0562 Y-0.0396 I0.125 J0
G1 Z-0.2 F30
G1 X11.3062 Y-0.0396 F60
G3 X11.4312 Y0.0854 I0 J0.125
G1 X11.4312 Y4.8354
G3 X11.4029 Y5.0214 I-0.625 J0
G3 X11.3206 Y5.1904 I-0.5967 J-0.1859
G3 X11.1916 Y5.3274 I-0.5144 J-0.355
G3 X11.0278 Y5.4198 I-0.3855 J-0.492
G3 X10.844 Y5.4593 I-0.2217 J-0.5844
G3 X10.6567 Y5.4423 I-0.0378 J-0.6239
G3 X10.4829 Y5.3703 I0.1495 J-0.6069
G3 X10.3384 Y5.2499 I0.3233 J-0.5349
G2 X9.41 Y4.3369 I-7.0997 J6.2911
G2 X8.4053 Y3.5938 I-5.6902 J6.6426
G2 X7.3049 Y3.0015 I-4.6855 J7.3857
G2 X6.0834 Y2.5505 I-3.8883 J8.6525
G2 X4.8116 Y2.2711 I-2.6667 J9.1034
G2 X3.5656 Y2.1761 I-1.2862 J8.6515
G2 X2.3187 Y2.2596 I-0.0402 J8.7465
G2 X1.0444 Y2.5274 I1.3087 J9.3953
G3 X0.7782 Y2.56 I-0.2383 J-0.8419
G3 X0.5146 Y2.5104 I0.028 J-0.8746
G3 X0.2784 Y2.3833 I0.2916 J-0.825
G3 X0.0918 Y2.1906 I0.5278 J-0.6979
G3 X-0.0277 Y1.9505 I0.7144 J-0.5052
G3 X-0.0688 Y1.6854 I0.8339 J-0.2651
G1 X-0.0688 Y0.0854
G3 X0.0562 Y-0.0396 I0.125 J0
G1 Z-0.3 F30
G1 X11.3062 Y-0.0396 F60
G3 X11.4312 Y0.0854 I0 J0.125
G1 X11.4312 Y4.8354
G3 X11.4029 Y5.0214 I-0.625 J0
G3 X11.3206 Y5.1904 I-0.5967 J-0.1859
G3 X11.1916 Y5.3274 I-0.5144 J-0.355
G3 X11.0278 Y5.4198 I-0.3855 J-0.492
G3 X10.844 Y5.4593 I-0.2217 J-0.5844
G3 X10.6567 Y5.4423 I-0.0378 J-0.6239
G3 X10.4829 Y5.3703 I0.1495 J-0.6069
G3 X10.3384 Y5.2499 I0.3233 J-0.5349
G2 X9.41 Y4.3369 I-7.0997 J6.2911
G2 X8.4053 Y3.5938 I-5.6902 J6.6426
G2 X7.3049 Y3.0015 I-4.6855 J7.3857
G2 X6.0834 Y2.5505 I-3.8883 J8.6525
G2 X4.8116 Y2.2711 I-2.6667 J9.1034
G2 X3.5656 Y2.1761 I-1.2862 J8.6515
G2 X2.3187 Y2.2596 I-0.0402 J8.7465
G2 X1.0444 Y2.5274 I1.3087 J9.3953
G3 X0.7782 Y2.56 I-0.2383 J-0.8419
G3 X0.5146 Y2.5104 I0.028 J-0.8746
G3 X0.2784 Y2.3833 I0.2916 J-0.825
G3 X0.0918 Y2.1906 I0.5278 J-0.6979
G3 X-0.0277 Y1.9505 I0.7144 J-0.5052
G3 X-0.0688 Y1.6854 I0.8339 J-0.2651
G1 X-0.0688 Y0.0854
G3 X0.0562 Y-0.0396 I0.125 J0
G1 Z-0.4 F30
G1 X11.3062 Y-0.0396 F60
G3 X11.4312 Y0.0854 I0 J0.125
G1 X11.4312 Y4.8354
G3 X11.4029 Y5.0214 I-0.625 J0
G3 X11.3206 Y5.1904 I-0.5967 J-0.1859
G3 X11.1916 Y5.3274 I-0.5144 J-0.355
G3 X11.0278 Y5.4198 I-0.3855 J-0.492
G3 X10.844 Y5.4593 I-0.2217 J-0.5844
G3 X10.6567 Y5.4423 I-0.0378 J-0.6239
G3 X10.4829 Y5.3703 I0.1495 J-0.6069
G3 X10.3384 Y5.2499 I0.3233 J-0.5349
G2 X9.41 Y4.3369 I-7.0997 J6.2911
G2 X8.4053 Y3.5938 I-5.6902 J6.6426
G2 X7.3049 Y3.0015 I-4.6855 J7.3857
G2 X6.0834 Y2.5505 I-3.8883 J8.6525
G2 X4.8116 Y2.2711 I-2.6667 J9.1034
G2 X3.5656 Y2.1761 I-1.2862 J8.6515
G2 X2.3187 Y2.2596 I-0.0402 J8.7465
G2 X1.0444 Y2.5274 I1.3087 J9.3953
G3 X0.7782 Y2.56 I-0.2383 J-0.8419
G3 X0.5146 Y2.5104 I0.028 J-0.8746
G3 X0.2784 Y2.3833 I0.2916 J-0.825
G3 X0.0918 Y2.1906 I0.5278 J-0.6979
G3 X-0.0277 Y1.9505 I0.7144 J-0.5052
G3 X-0.0688 Y1.6854 I0.8339 J-0.2651
G1 X-0.0688 Y0.0854
G3 X0.0562 Y-0.0396 I0.125 J0
G1 Z-0.5 F30
G1 X11.3062 Y-0.0396 F60
G3 X11.4312 Y0.0854 I0 J0.125
G1 X11.4312 Y4.8354
G3 X11.4029 Y5.0214 I-0.625 J0
G3 X11.3206 Y5.1904 I-0.5967 J-0.1859
G3 X11.1916 Y5.3274 I-0.5144 J-0.355
G3 X11.0278 Y5.4198 I-0.3855 J-0.492
G3 X10.844 Y5.4593 I-0.2217 J-0.5844
G3 X10.6567 Y5.4423 I-0.0378 J-0.6239
G3 X10.4829 Y5.3703 I0.1495 J-0.6069
G3 X10.3384 Y5.2499 I0.3233 J-0.5349
G2 X9.41 Y4.3369 I-7.0997 J6.2911
G2 X8.4053 Y3.5938 I-5.6902 J6.6426
G2 X7.3049 Y3.0015 I-4.6855 J7.3857
G2 X6.0834 Y2.5505 I-3.8883 J8.6525
G2 X4.8116 Y2.2711 I-2.6667 J9.1034
G2 X3.5656 Y2.1761 I-1.2862 J8.6515
G2 X2.3187 Y2.2596 I-0.0402 J8.7465
G2 X1.0444 Y2.5274 I1.3087 J9.3953
G3 X0.7782 Y2.56 I-0.2383 J-0.8419
G3 X0.5146 Y2.5104 I0.028 J-0.8746
G3 X0.2784 Y2.3833 I0.2916 J-0.825
G3 X0.0918 Y2.1906 I0.5278 J-0.6979
G3 X-0.0277 Y1.9505 I0.7144 J-0.5052
G3 X-0.0688 Y1.6854 I0.8339 J-0.2651
G1 X-0.0688 Y0.0854
G3 X0.0562 Y-0.0396 I0.125 J0
G1 Z-0.6 F30
G1 X11.3062 Y-0.0396 F60
G3 X11.4312 Y0.0854 I0 J0.125
G1 X11.4312 Y4.8354
G3 X11.4029 Y5.0214 I-0.625 J0
G3 X11.3206 Y5.1904 I-0.5967 J-0.1859
G3 X11.1916 Y5.3274 I-0.5144 J-0.355
G3 X11.0278 Y5.4198 I-0.3855 J-0.492
G3 X10.844 Y5.4593 I-0.2217 J-0.5844
G3 X10.6567 Y5.4423 I-0.0378 J-0.6239
G3 X10.4829 Y5.3703 I0.1495 J-0.6069
G3 X10.3384 Y5.2499 I0.3233 J-0.5349
G2 X9.41 Y4.3369 I-7.0997 J6.2911
G2 X8.4053 Y3.5938 I-5.6902 J6.6426
G2 X7.3049 Y3.0015 I-4.6855 J7.3857
G2 X6.0834 Y2.5505 I-3.8883 J8.6525
G2 X4.8116 Y2.2711 I-2.6667 J9.1034
G2 X3.5656 Y2.1761 I-1.2862 J8.6515
G2 X2.3187 Y2.2596 I-0.0402 J8.7465
G2 X1.0444 Y2.5274 I1.3087 J9.3953
G3 X0.7782 Y2.56 I-0.2383 J-0.8419
G3 X0.5146 Y2.5104 I0.028 J-0.8746
G3 X0.2784 Y2.3833 I0.2916 J-0.825
G3 X0.0918 Y2.1906 I0.5278 J-0.6979
G3 X-0.0277 Y1.9505 I0.7144 J-0.5052
G3 X-0.0688 Y1.6854 I0.8339 J-0.2651
G1 X-0.0688 Y0.0854
G3 X0.0562 Y-0.0396 I0.125 J0
G1 Z-0.7 F30
G1 X11.3062 Y-0.0396 F60
G3 X11.4312 Y0.0854 I0 J0.125
G1 X11.4312 Y4.8354
G3 X11.4029 Y5.0214 I-0.625 J0
G3 X11.3206 Y5.1904 I-0.5967 J-0.1859
G3 X11.1916 Y5.3274 I-0.5144 J-0.355
G3 X11.0278 Y5.4198 I-0.3855 J-0.492
G3 X10.844 Y5.4593 I-0.2217 J-0.5844
G3 X10.6567 Y5.4423 I-0.0378 J-0.6239
G3 X10.4829 Y5.3703 I0.1495 J-0.6069
G3 X10.3384 Y5.2499 I0.3233 J-0.5349
G2 X9.41 Y4.3369 I-7.0997 J6.2911
G2 X8.4053 Y3.5938 I-5.6902 J6.6426
G2 X7.3049 Y3.0015 I-4.6855 J7.3857
G2 X6.0834 Y2.5505 I-3.8883 J8.6525
G2 X4.8116 Y2.2711 I-2.6667 J9.1034
G2 X3.5656 Y2.1761 I-1.2862 J8.6515
G2 X2.3187 Y2.2596 I-0.0402 J8.7465
G2 X1.0444 Y2.5274 I1.3087 J9.3953
G3 X0.7782 Y2.56 I-0.2383 J-0.8419
G3 X0.5146 Y2.5104 I0.028 J-0.8746
G3 X0.2784 Y2.3833 I0.2916 J-0.825
G3 X0.0918 Y2.1906 I0.5278 J-0.6979
G3 X-0.0277 Y1.9505 I0.7144 J-0.5052
G3 X-0.0688 Y1.6854 I0.8339 J-0.2651
G1 X-0.0688 Y0.0854
G3 X0.0562 Y-0.0396 I0.125 J0
G1 Z-0.8 F30
G1 X11.3062 Y-0.0396 F60
G3 X11.4312 Y0.0854 I0 J0.125
G1 X11.4312 Y4.8354
G3 X11.4029 Y5.0214 I-0.625 J0
G3 X11.3206 Y5.1904 I-0.5967 J-0.1859
G3 X11.1916 Y5.3274 I-0.5144 J-0.355
G3 X11.0278 Y5.4198 I-0.3855 J-0.492
G3 X10.844 Y5.4593 I-0.2217 J-0.5844
G3 X10.6567 Y5.4423 I-0.0378 J-0.6239
G3 X10.4829 Y5.3703 I0.1495 J-0.6069
G3 X10.3384 Y5.2499 I0.3233 J-0.5349
G2 X9.41 Y4.3369 I-7.0997 J6.2911
G2 X8.4053 Y3.5938 I-5.6902 J6.6426
G2 X7.3049 Y3.0015 I-4.6855 J7.3857
G2 X6.0834 Y2.5505 I-3.8883 J8.6525
G2 X4.8116 Y2.2711 I-2.6667 J9.1034
G2 X3.5656 Y2.1761 I-1.2862 J8.6515
G2 X2.3187 Y2.2596 I-0.0402 J8.7465
G2 X1.0444 Y2.5274 I1.3087 J9.3953
G3 X0.7782 Y2.56 I-0.2383 J-0.8419
G3 X0.5146 Y2.5104 I0.028 J-0.8746
G3 X0.2784 Y2.3833 I0.2916 J-0.825
G3 X0.0918 Y2.1906 I0.5278 J-0.6979
G3 X-0.0277 Y1.9505 I0.7144 J-0.5052
G3 X-0.0688 Y1.6854 I0.8339 J-0.2651
G1 X-0.0688 Y0.0854
G3 X0.0562 Y-0.0396 I0.125 J0
G0 Z0.2
M5
M30
