(Generated by PartKam Version 0.05)

G20 G90 G40

(pocket 1)
G0 Z0.2
T0 M6
G17
M3
G0 X10.9049 Y0.3055
G1 Z-0.1 F30
G3 X11.0299 Y0.4305 I0 J0.125 F60
G1 X11.0299 Y1.7805
G3 X10.9049 Y1.9055 I-0.125 J0
G1 X4.9298 Y1.9055
G1 X4.0289 Y2.2786
G3 X3.8824 Y2.2399 I-0.0478 J-0.1155
G1 X3.7136 Y2.0227
G1 X3.5162 Y2.1762
G1 X3.6696 Y2.3736
G3 X3.6959 Y2.4503 I-0.0987 J0.0767
G3 X3.6477 Y2.549 I-0.125 J0
G1 X1.0816 Y4.5434
G3 X0.8799 Y4.4447 I-0.0767 J-0.0987
G3 X0.8945 Y4.386 I0.125 J0
G1 X1.0362 Y4.1196
G1 X0.8155 Y4.0023
G1 X0.5153 Y4.5667
G3 X0.2799 Y4.5081 I-0.1104 J-0.0587
G1 X0.2799 Y0.4305
G3 X0.4049 Y0.3055 I0.125 J0
G1 X10.9049 Y0.3055
G0 Z0.2
G0 X6.4559 Y2.2055
G1 Z-0.1 F30
G1 X4.2481 Y2.5126 F60
G1 X4.9895 Y2.2055
G1 X6.4559 Y2.2055
G0 Z0.2
G0 X0.8076 Y4.9837
G1 Z-0.1 F30
G1 X0.4112 Y4.9905 F60
G1 X0.411 Y4.933
G2 X0.7363 Y4.7741 I-0.0061 J-0.425
G2 X0.9547 Y4.8668 I0.2686 J-0.3294
G1 X0.8076 Y4.9837
G0 Z0.2
G0 X0.8432 Y5.0831
G1 Z-0.1 F30
G1 X0.3115 Y5.0923 F60
G1 X0.3107 Y4.8191
G2 X0.6919 Y4.6606 I0.0942 J-0.311
G1 X0.7218 Y4.6044
G2 X1.2043 Y4.7013 I0.2831 J-0.1596
G1 X3.7704 Y2.7069
G2 X3.8949 Y2.4765 I-0.1994 J-0.2566
G2 X4.1054 Y2.4634 I0.0862 J-0.3134
G1 X4.9696 Y2.1055
G1 X10.9049 Y2.1055
G2 X11.0344 Y2.0786 I0 J-0.325
G1 X11.0344 Y2.1486
G1 X7.6132 Y2.1486
G2 X7.5685 Y2.1517 I0 J0.325
G1 X3.9764 Y2.6513
G2 X3.819 Y2.7187 I0.0448 J0.3219
G1 X0.8432 Y5.0831
G1 X0.8788 Y5.1825 F60
G1 X0.2119 Y5.194 F60
G1 X0.2101 Y4.6205
G2 X0.6036 Y4.6137 I0.1949 J-0.1125
G1 X0.8568 Y4.1375
G1 X0.9009 Y4.161
G1 X0.8062 Y4.3391
G2 X0.7799 Y4.4447 I0.1987 J0.1056
G2 X1.143 Y4.6224 I0.225 J0
G1 X3.709 Y2.6279
G2 X3.7959 Y2.4503 I-0.1381 J-0.1776
G2 X3.7486 Y2.3122 I-0.225 J0
G1 X3.6565 Y2.1938
G1 X3.696 Y2.1631
G1 X3.8034 Y2.3012
G2 X4.0672 Y2.371 I0.1776 J-0.1381
G1 X4.9497 Y2.0055
G1 X10.9049 Y2.0055
G2 X11.1299 Y1.7805 I0 J-0.225
G1 X11.1299 Y0.4305
G2 X11.034 Y0.2462 I-0.225 J0
G1 X11.1344 Y0.2462
G1 X11.1344 Y2.2486
G1 X7.6132 Y2.2486
G2 X7.5822 Y2.2507 I0 J0.225
G1 X3.9902 Y2.7504
G2 X3.8813 Y2.797 I0.031 J0.2229
G1 X0.8788 Y5.1825
G0 Z0.2
G0 X0.2759 Y0.2462
G1 Z-0.1 F30
G2 X0.1968 Y0.345 I0.129 J0.1843 F60
G1 X0.1965 Y0.2462
G1 X0.2759 Y0.2462
G0 Z0.2
G0 X0.0962 Y0.1462
G1 Z-0.1 F30
G1 X11.2344 Y0.1462 F60
G1 X11.2344 Y2.3486
G1 X7.6132 Y2.3486
G2 X7.596 Y2.3498 I0 J0.125
G1 X4.004 Y2.8494
G2 X3.9435 Y2.8753 I0.0172 J0.1238
G1 X0.9145 Y5.2819
G1 X0.1122 Y5.2957
G1 X0.0962 Y0.1462
G0 Z0.2
G0 X10.9049 Y0.3055
G1 Z-0.2 F30
G3 X11.0299 Y0.4305 I0 J0.125 F60
G1 X11.0299 Y1.7805
G3 X10.9049 Y1.9055 I-0.125 J0
G1 X4.9298 Y1.9055
G1 X4.0289 Y2.2786
G3 X3.8824 Y2.2399 I-0.0478 J-0.1155
G1 X3.7136 Y2.0227
G1 X3.5162 Y2.1762
G1 X3.6696 Y2.3736
G3 X3.6959 Y2.4503 I-0.0987 J0.0767
G3 X3.6477 Y2.549 I-0.125 J0
G1 X1.0816 Y4.5434
G3 X0.8799 Y4.4447 I-0.0767 J-0.0987
G3 X0.8945 Y4.386 I0.125 J0
G1 X1.0362 Y4.1196
G1 X0.8155 Y4.0023
G1 X0.5153 Y4.5667
G3 X0.2799 Y4.5081 I-0.1104 J-0.0587
G1 X0.2799 Y0.4305
G3 X0.4049 Y0.3055 I0.125 J0
G1 X10.9049 Y0.3055
G0 Z0.2
G0 X6.4559 Y2.2055
G1 Z-0.2 F30
G1 X4.2481 Y2.5126 F60
G1 X4.9895 Y2.2055
G1 X6.4559 Y2.2055
G0 Z0.2
G0 X0.8076 Y4.9837
G1 Z-0.2 F30
G1 X0.4112 Y4.9905 F60
G1 X0.411 Y4.933
G2 X0.7363 Y4.7741 I-0.0061 J-0.425
G2 X0.9547 Y4.8668 I0.2686 J-0.3294
G1 X0.8076 Y4.9837
G0 Z0.2
G0 X0.8432 Y5.0831
G1 Z-0.2 F30
G1 X0.3115 Y5.0923 F60
G1 X0.3107 Y4.8191
G2 X0.6919 Y4.6606 I0.0942 J-0.311
G1 X0.7218 Y4.6044
G2 X1.2043 Y4.7013 I0.2831 J-0.1596
G1 X3.7704 Y2.7069
G2 X3.8949 Y2.4765 I-0.1994 J-0.2566
G2 X4.1054 Y2.4634 I0.0862 J-0.3134
G1 X4.9696 Y2.1055
G1 X10.9049 Y2.1055
G2 X11.0344 Y2.0786 I0 J-0.325
G1 X11.0344 Y2.1486
G1 X7.6132 Y2.1486
G2 X7.5685 Y2.1517 I0 J0.325
G1 X3.9764 Y2.6513
G2 X3.819 Y2.7187 I0.0448 J0.3219
G1 X0.8432 Y5.0831
G1 X0.8788 Y5.1825 F60
G1 X0.2119 Y5.194 F60
G1 X0.2101 Y4.6205
G2 X0.6036 Y4.6137 I0.1949 J-0.1125
G1 X0.8568 Y4.1375
G1 X0.9009 Y4.161
G1 X0.8062 Y4.3391
G2 X0.7799 Y4.4447 I0.1987 J0.1056
G2 X1.143 Y4.6224 I0.225 J0
G1 X3.709 Y2.6279
G2 X3.7959 Y2.4503 I-0.1381 J-0.1776
G2 X3.7486 Y2.3122 I-0.225 J0
G1 X3.6565 Y2.1938
G1 X3.696 Y2.1631
G1 X3.8034 Y2.3012
G2 X4.0672 Y2.371 I0.1776 J-0.1381
G1 X4.9497 Y2.0055
G1 X10.9049 Y2.0055
G2 X11.1299 Y1.7805 I0 J-0.225
G1 X11.1299 Y0.4305
G2 X11.034 Y0.2462 I-0.225 J0
G1 X11.1344 Y0.2462
G1 X11.1344 Y2.2486
G1 X7.6132 Y2.2486
G2 X7.5822 Y2.2507 I0 J0.225
G1 X3.9902 Y2.7504
G2 X3.8813 Y2.797 I0.031 J0.2229
G1 X0.8788 Y5.1825
G0 Z0.2
G0 X0.2759 Y0.2462
G1 Z-0.2 F30
G2 X0.1968 Y0.345 I0.129 J0.1843 F60
G1 X0.1965 Y0.2462
G1 X0.2759 Y0.2462
G0 Z0.2
G0 X0.0962 Y0.1462
G1 Z-0.2 F30
G1 X11.2344 Y0.1462 F60
G1 X11.2344 Y2.3486
G1 X7.6132 Y2.3486
G2 X7.596 Y2.3498 I0 J0.125
G1 X4.004 Y2.8494
G2 X3.9435 Y2.8753 I0.0172 J0.1238
G1 X0.9145 Y5.2819
G1 X0.1122 Y5.2957
G1 X0.0962 Y0.1462
G0 Z0.2
G0 X10.9049 Y0.3055
G1 Z-0.3 F30
G3 X11.0299 Y0.4305 I0 J0.125 F60
G1 X11.0299 Y1.7805
G3 X10.9049 Y1.9055 I-0.125 J0
G1 X4.9298 Y1.9055
G1 X4.0289 Y2.2786
G3 X3.8824 Y2.2399 I-0.0478 J-0.1155
G1 X3.7136 Y2.0227
G1 X3.5162 Y2.1762
G1 X3.6696 Y2.3736
G3 X3.6959 Y2.4503 I-0.0987 J0.0767
G3 X3.6477 Y2.549 I-0.125 J0
G1 X1.0816 Y4.5434
G3 X0.8799 Y4.4447 I-0.0767 J-0.0987
G3 X0.8945 Y4.386 I0.125 J0
G1 X1.0362 Y4.1196
G1 X0.8155 Y4.0023
G1 X0.5153 Y4.5667
G3 X0.2799 Y4.5081 I-0.1104 J-0.0587
G1 X0.2799 Y0.4305
G3 X0.4049 Y0.3055 I0.125 J0
G1 X10.9049 Y0.3055
G0 Z0.2
G0 X6.4559 Y2.2055
G1 Z-0.3 F30
G1 X4.2481 Y2.5126 F60
G1 X4.9895 Y2.2055
G1 X6.4559 Y2.2055
G0 Z0.2
G0 X0.8076 Y4.9837
G1 Z-0.3 F30
G1 X0.4112 Y4.9905 F60
G1 X0.411 Y4.933
G2 X0.7363 Y4.7741 I-0.0061 J-0.425
G2 X0.9547 Y4.8668 I0.2686 J-0.3294
G1 X0.8076 Y4.9837
G0 Z0.2
G0 X0.8432 Y5.0831
G1 Z-0.3 F30
G1 X0.3115 Y5.0923 F60
G1 X0.3107 Y4.8191
G2 X0.6919 Y4.6606 I0.0942 J-0.311
G1 X0.7218 Y4.6044
G2 X1.2043 Y4.7013 I0.2831 J-0.1596
G1 X3.7704 Y2.7069
G2 X3.8949 Y2.4765 I-0.1994 J-0.2566
G2 X4.1054 Y2.4634 I0.0862 J-0.3134
G1 X4.9696 Y2.1055
G1 X10.9049 Y2.1055
G2 X11.0344 Y2.0786 I0 J-0.325
G1 X11.0344 Y2.1486
G1 X7.6132 Y2.1486
G2 X7.5685 Y2.1517 I0 J0.325
G1 X3.9764 Y2.6513
G2 X3.819 Y2.7187 I0.0448 J0.3219
G1 X0.8432 Y5.0831
G1 X0.8788 Y5.1825 F60
G1 X0.2119 Y5.194 F60
G1 X0.2101 Y4.6205
G2 X0.6036 Y4.6137 I0.1949 J-0.1125
G1 X0.8568 Y4.1375
G1 X0.9009 Y4.161
G1 X0.8062 Y4.3391
G2 X0.7799 Y4.4447 I0.1987 J0.1056
G2 X1.143 Y4.6224 I0.225 J0
G1 X3.709 Y2.6279
G2 X3.7959 Y2.4503 I-0.1381 J-0.1776
G2 X3.7486 Y2.3122 I-0.225 J0
G1 X3.6565 Y2.1938
G1 X3.696 Y2.1631
G1 X3.8034 Y2.3012
G2 X4.0672 Y2.371 I0.1776 J-0.1381
G1 X4.9497 Y2.0055
G1 X10.9049 Y2.0055
G2 X11.1299 Y1.7805 I0 J-0.225
G1 X11.1299 Y0.4305
G2 X11.034 Y0.2462 I-0.225 J0
G1 X11.1344 Y0.2462
G1 X11.1344 Y2.2486
G1 X7.6132 Y2.2486
G2 X7.5822 Y2.2507 I0 J0.225
G1 X3.9902 Y2.7504
G2 X3.8813 Y2.797 I0.031 J0.2229
G1 X0.8788 Y5.1825
G0 Z0.2
G0 X0.2759 Y0.2462
G1 Z-0.3 F30
G2 X0.1968 Y0.345 I0.129 J0.1843 F60
G1 X0.1965 Y0.2462
G1 X0.2759 Y0.2462
G0 Z0.2
G0 X0.0962 Y0.1462
G1 Z-0.3 F30
G1 X11.2344 Y0.1462 F60
G1 X11.2344 Y2.3486
G1 X7.6132 Y2.3486
G2 X7.596 Y2.3498 I0 J0.125
G1 X4.004 Y2.8494
G2 X3.9435 Y2.8753 I0.0172 J0.1238
G1 X0.9145 Y5.2819
G1 X0.1122 Y5.2957
G1 X0.0962 Y0.1462
G0 Z0.2
G0 X10.9049 Y0.3055
G1 Z-0.4 F30
G3 X11.0299 Y0.4305 I0 J0.125 F60
G1 X11.0299 Y1.7805
G3 X10.9049 Y1.9055 I-0.125 J0
G1 X4.9298 Y1.9055
G1 X4.0289 Y2.2786
G3 X3.8824 Y2.2399 I-0.0478 J-0.1155
G1 X3.7136 Y2.0227
G1 X3.5162 Y2.1762
G1 X3.6696 Y2.3736
G3 X3.6959 Y2.4503 I-0.0987 J0.0767
G3 X3.6477 Y2.549 I-0.125 J0
G1 X1.0816 Y4.5434
G3 X0.8799 Y4.4447 I-0.0767 J-0.0987
G3 X0.8945 Y4.386 I0.125 J0
G1 X1.0362 Y4.1196
G1 X0.8155 Y4.0023
G1 X0.5153 Y4.5667
G3 X0.2799 Y4.5081 I-0.1104 J-0.0587
G1 X0.2799 Y0.4305
G3 X0.4049 Y0.3055 I0.125 J0
G1 X10.9049 Y0.3055
G0 Z0.2
G0 X6.4559 Y2.2055
G1 Z-0.4 F30
G1 X4.2481 Y2.5126 F60
G1 X4.9895 Y2.2055
G1 X6.4559 Y2.2055
G0 Z0.2
G0 X0.8076 Y4.9837
G1 Z-0.4 F30
G1 X0.4112 Y4.9905 F60
G1 X0.411 Y4.933
G2 X0.7363 Y4.7741 I-0.0061 J-0.425
G2 X0.9547 Y4.8668 I0.2686 J-0.3294
G1 X0.8076 Y4.9837
G0 Z0.2
G0 X0.8432 Y5.0831
G1 Z-0.4 F30
G1 X0.3115 Y5.0923 F60
G1 X0.3107 Y4.8191
G2 X0.6919 Y4.6606 I0.0942 J-0.311
G1 X0.7218 Y4.6044
G2 X1.2043 Y4.7013 I0.2831 J-0.1596
G1 X3.7704 Y2.7069
G2 X3.8949 Y2.4765 I-0.1994 J-0.2566
G2 X4.1054 Y2.4634 I0.0862 J-0.3134
G1 X4.9696 Y2.1055
G1 X10.9049 Y2.1055
G2 X11.0344 Y2.0786 I0 J-0.325
G1 X11.0344 Y2.1486
G1 X7.6132 Y2.1486
G2 X7.5685 Y2.1517 I0 J0.325
G1 X3.9764 Y2.6513
G2 X3.819 Y2.7187 I0.0448 J0.3219
G1 X0.8432 Y5.0831
G1 X0.8788 Y5.1825 F60
G1 X0.2119 Y5.194 F60
G1 X0.2101 Y4.6205
G2 X0.6036 Y4.6137 I0.1949 J-0.1125
G1 X0.8568 Y4.1375
G1 X0.9009 Y4.161
G1 X0.8062 Y4.3391
G2 X0.7799 Y4.4447 I0.1987 J0.1056
G2 X1.143 Y4.6224 I0.225 J0
G1 X3.709 Y2.6279
G2 X3.7959 Y2.4503 I-0.1381 J-0.1776
G2 X3.7486 Y2.3122 I-0.225 J0
G1 X3.6565 Y2.1938
G1 X3.696 Y2.1631
G1 X3.8034 Y2.3012
G2 X4.0672 Y2.371 I0.1776 J-0.1381
G1 X4.9497 Y2.0055
G1 X10.9049 Y2.0055
G2 X11.1299 Y1.7805 I0 J-0.225
G1 X11.1299 Y0.4305
G2 X11.034 Y0.2462 I-0.225 J0
G1 X11.1344 Y0.2462
G1 X11.1344 Y2.2486
G1 X7.6132 Y2.2486
G2 X7.5822 Y2.2507 I0 J0.225
G1 X3.9902 Y2.7504
G2 X3.8813 Y2.797 I0.031 J0.2229
G1 X0.8788 Y5.1825
G0 Z0.2
G0 X0.2759 Y0.2462
G1 Z-0.4 F30
G2 X0.1968 Y0.345 I0.129 J0.1843 F60
G1 X0.1965 Y0.2462
G1 X0.2759 Y0.2462
G0 Z0.2
G0 X0.0962 Y0.1462
G1 Z-0.4 F30
G1 X11.2344 Y0.1462 F60
G1 X11.2344 Y2.3486
G1 X7.6132 Y2.3486
G2 X7.596 Y2.3498 I0 J0.125
G1 X4.004 Y2.8494
G2 X3.9435 Y2.8753 I0.0172 J0.1238
G1 X0.9145 Y5.2819
G1 X0.1122 Y5.2957
G1 X0.0962 Y0.1462
G0 Z0.2
G0 X10.9049 Y0.3055
G1 Z-0.45 F30
G3 X11.0299 Y0.4305 I0 J0.125 F60
G1 X11.0299 Y1.7805
G3 X10.9049 Y1.9055 I-0.125 J0
G1 X4.9298 Y1.9055
G1 X4.0289 Y2.2786
G3 X3.8824 Y2.2399 I-0.0478 J-0.1155
G1 X3.7136 Y2.0227
G1 X3.5162 Y2.1762
G1 X3.6696 Y2.3736
G3 X3.6959 Y2.4503 I-0.0987 J0.0767
G3 X3.6477 Y2.549 I-0.125 J0
G1 X1.0816 Y4.5434
G3 X0.8799 Y4.4447 I-0.0767 J-0.0987
G3 X0.8945 Y4.386 I0.125 J0
G1 X1.0362 Y4.1196
G1 X0.8155 Y4.0023
G1 X0.5153 Y4.5667
G3 X0.2799 Y4.5081 I-0.1104 J-0.0587
G1 X0.2799 Y0.4305
G3 X0.4049 Y0.3055 I0.125 J0
G1 X10.9049 Y0.3055
G0 Z0.2
G0 X6.4559 Y2.2055
G1 Z-0.45 F30
G1 X4.2481 Y2.5126 F60
G1 X4.9895 Y2.2055
G1 X6.4559 Y2.2055
G0 Z0.2
G0 X0.8076 Y4.9837
G1 Z-0.45 F30
G1 X0.4112 Y4.9905 F60
G1 X0.411 Y4.933
G2 X0.7363 Y4.7741 I-0.0061 J-0.425
G2 X0.9547 Y4.8668 I0.2686 J-0.3294
G1 X0.8076 Y4.9837
G0 Z0.2
G0 X0.8432 Y5.0831
G1 Z-0.45 F30
G1 X0.3115 Y5.0923 F60
G1 X0.3107 Y4.8191
G2 X0.6919 Y4.6606 I0.0942 J-0.311
G1 X0.7218 Y4.6044
G2 X1.2043 Y4.7013 I0.2831 J-0.1596
G1 X3.7704 Y2.7069
G2 X3.8949 Y2.4765 I-0.1994 J-0.2566
G2 X4.1054 Y2.4634 I0.0862 J-0.3134
G1 X4.9696 Y2.1055
G1 X10.9049 Y2.1055
G2 X11.0344 Y2.0786 I0 J-0.325
G1 X11.0344 Y2.1486
G1 X7.6132 Y2.1486
G2 X7.5685 Y2.1517 I0 J0.325
G1 X3.9764 Y2.6513
G2 X3.819 Y2.7187 I0.0448 J0.3219
G1 X0.8432 Y5.0831
G1 X0.8788 Y5.1825 F60
G1 X0.2119 Y5.194 F60
G1 X0.2101 Y4.6205
G2 X0.6036 Y4.6137 I0.1949 J-0.1125
G1 X0.8568 Y4.1375
G1 X0.9009 Y4.161
G1 X0.8062 Y4.3391
G2 X0.7799 Y4.4447 I0.1987 J0.1056
G2 X1.143 Y4.6224 I0.225 J0
G1 X3.709 Y2.6279
G2 X3.7959 Y2.4503 I-0.1381 J-0.1776
G2 X3.7486 Y2.3122 I-0.225 J0
G1 X3.6565 Y2.1938
G1 X3.696 Y2.1631
G1 X3.8034 Y2.3012
G2 X4.0672 Y2.371 I0.1776 J-0.1381
G1 X4.9497 Y2.0055
G1 X10.9049 Y2.0055
G2 X11.1299 Y1.7805 I0 J-0.225
G1 X11.1299 Y0.4305
G2 X11.034 Y0.2462 I-0.225 J0
G1 X11.1344 Y0.2462
G1 X11.1344 Y2.2486
G1 X7.6132 Y2.2486
G2 X7.5822 Y2.2507 I0 J0.225
G1 X3.9902 Y2.7504
G2 X3.8813 Y2.797 I0.031 J0.2229
G1 X0.8788 Y5.1825
G0 Z0.2
G0 X0.2759 Y0.2462
G1 Z-0.45 F30
G2 X0.1968 Y0.345 I0.129 J0.1843 F60
G1 X0.1965 Y0.2462
G1 X0.2759 Y0.2462
G0 Z0.2
G0 X0.0962 Y0.1462
G1 Z-0.45 F30
G1 X11.2344 Y0.1462 F60
G1 X11.2344 Y2.3486
G1 X7.6132 Y2.3486
G2 X7.596 Y2.3498 I0 J0.125
G1 X4.004 Y2.8494
G2 X3.9435 Y2.8753 I0.0172 J0.1238
G1 X0.9145 Y5.2819
G1 X0.1122 Y5.2957
G1 X0.0962 Y0.1462

(profile 2)
G0 Z0.2
G0 X0.0299 Y-0.0695
G1 Z-0.1 F30
G1 X11.2799 Y-0.0695 F60
G3 X11.4049 Y0.0555 I0 J0.125
G1 X11.4049 Y1.6555
G3 X11.3638 Y1.9205 I-0.875 J0
G3 X11.2444 Y2.1607 I-0.8339 J-0.2651
G3 X11.0577 Y2.3534 I-0.7144 J-0.5052
G3 X10.8215 Y2.4805 I-0.5278 J-0.6979
G3 X10.5579 Y2.53 I-0.2916 J-0.825
G3 X10.2917 Y2.4974 I-0.028 J-0.8746
G2 X9.0174 Y2.2297 I-2.583 J9.1275
G2 X7.7705 Y2.1461 I-1.2067 J8.6629
G2 X6.5245 Y2.2411 I0.0402 J8.7465
G2 X5.2527 Y2.5206 I1.395 J9.3829
G2 X4.0312 Y2.9715 I2.6667 J9.1034
G2 X2.9308 Y3.5639 I3.5852 J7.978
G2 X1.9261 Y4.307 I4.6855 J7.3857
G2 X0.9977 Y5.22 I6.1713 J7.2041
G3 X0.8532 Y5.3404 I-0.4678 J-0.4145
G3 X0.6795 Y5.4123 I-0.3233 J-0.5349
G3 X0.4922 Y5.4293 I-0.1495 J-0.6069
G3 X0.3083 Y5.3899 I0.0378 J-0.6239
G3 X0.1445 Y5.2975 I0.2217 J-0.5844
G3 X0.0156 Y5.1605 I0.3855 J-0.492
G3 X-0.0668 Y4.9914 I0.5144 J-0.355
G3 X-0.0951 Y4.8055 I0.5967 J-0.1859
G1 X-0.0951 Y0.0555
G3 X0.0299 Y-0.0695 I0.125 J0
G1 Z-0.2 F30
G1 X11.2799 Y-0.0695 F60
G3 X11.4049 Y0.0555 I0 J0.125
G1 X11.4049 Y1.6555
G3 X11.3638 Y1.9205 I-0.875 J0
G3 X11.2444 Y2.1607 I-0.8339 J-0.2651
G3 X11.0577 Y2.3534 I-0.7144 J-0.5052
G3 X10.8215 Y2.4805 I-0.5278 J-0.6979
G3 X10.5579 Y2.53 I-0.2916 J-0.825
G3 X10.2917 Y2.4974 I-0.028 J-0.8746
G2 X9.0174 Y2.2297 I-2.583 J9.1275
G2 X7.7705 Y2.1461 I-1.2067 J8.6629
G2 X6.5245 Y2.2411 I0.0402 J8.7465
G2 X5.2527 Y2.5206 I1.395 J9.3829
G2 X4.0312 Y2.9715 I2.6667 J9.1034
G2 X2.9308 Y3.5639 I3.5852 J7.978
G2 X1.9261 Y4.307 I4.6855 J7.3857
G2 X0.9977 Y5.22 I6.1713 J7.2041
G3 X0.8532 Y5.3404 I-0.4678 J-0.4145
G3 X0.6795 Y5.4123 I-0.3233 J-0.5349
G3 X0.4922 Y5.4293 I-0.1495 J-0.6069
G3 X0.3083 Y5.3899 I0.0378 J-0.6239
G3 X0.1445 Y5.2975 I0.2217 J-0.5844
G3 X0.0156 Y5.1605 I0.3855 J-0.492
G3 X-0.0668 Y4.9914 I0.5144 J-0.355
G3 X-0.0951 Y4.8055 I0.5967 J-0.1859
G1 X-0.0951 Y0.0555
G3 X0.0299 Y-0.0695 I0.125 J0
G1 Z-0.3 F30
G1 X11.2799 Y-0.0695 F60
G3 X11.4049 Y0.0555 I0 J0.125
G1 X11.4049 Y1.6555
G3 X11.3638 Y1.9205 I-0.875 J0
G3 X11.2444 Y2.1607 I-0.8339 J-0.2651
G3 X11.0577 Y2.3534 I-0.7144 J-0.5052
G3 X10.8215 Y2.4805 I-0.5278 J-0.6979
G3 X10.5579 Y2.53 I-0.2916 J-0.825
G3 X10.2917 Y2.4974 I-0.028 J-0.8746
G2 X9.0174 Y2.2297 I-2.583 J9.1275
G2 X7.7705 Y2.1461 I-1.2067 J8.6629
G2 X6.5245 Y2.2411 I0.0402 J8.7465
G2 X5.2527 Y2.5206 I1.395 J9.3829
G2 X4.0312 Y2.9715 I2.6667 J9.1034
G2 X2.9308 Y3.5639 I3.5852 J7.978
G2 X1.9261 Y4.307 I4.6855 J7.3857
G2 X0.9977 Y5.22 I6.1713 J7.2041
G3 X0.8532 Y5.3404 I-0.4678 J-0.4145
G3 X0.6795 Y5.4123 I-0.3233 J-0.5349
G3 X0.4922 Y5.4293 I-0.1495 J-0.6069
G3 X0.3083 Y5.3899 I0.0378 J-0.6239
G3 X0.1445 Y5.2975 I0.2217 J-0.5844
G3 X0.0156 Y5.1605 I0.3855 J-0.492
G3 X-0.0668 Y4.9914 I0.5144 J-0.355
G3 X-0.0951 Y4.8055 I0.5967 J-0.1859
G1 X-0.0951 Y0.0555
G3 X0.0299 Y-0.0695 I0.125 J0
G1 Z-0.4 F30
G1 X11.2799 Y-0.0695 F60
G3 X11.4049 Y0.0555 I0 J0.125
G1 X11.4049 Y1.6555
G3 X11.3638 Y1.9205 I-0.875 J0
G3 X11.2444 Y2.1607 I-0.8339 J-0.2651
G3 X11.0577 Y2.3534 I-0.7144 J-0.5052
G3 X10.8215 Y2.4805 I-0.5278 J-0.6979
G3 X10.5579 Y2.53 I-0.2916 J-0.825
G3 X10.2917 Y2.4974 I-0.028 J-0.8746
G2 X9.0174 Y2.2297 I-2.583 J9.1275
G2 X7.7705 Y2.1461 I-1.2067 J8.6629
G2 X6.5245 Y2.2411 I0.0402 J8.7465
G2 X5.2527 Y2.5206 I1.395 J9.3829
G2 X4.0312 Y2.9715 I2.6667 J9.1034
G2 X2.9308 Y3.5639 I3.5852 J7.978
G2 X1.9261 Y4.307 I4.6855 J7.3857
G2 X0.9977 Y5.22 I6.1713 J7.2041
G3 X0.8532 Y5.3404 I-0.4678 J-0.4145
G3 X0.6795 Y5.4123 I-0.3233 J-0.5349
G3 X0.4922 Y5.4293 I-0.1495 J-0.6069
G3 X0.3083 Y5.3899 I0.0378 J-0.6239
G3 X0.1445 Y5.2975 I0.2217 J-0.5844
G3 X0.0156 Y5.1605 I0.3855 J-0.492
G3 X-0.0668 Y4.9914 I0.5144 J-0.355
G3 X-0.0951 Y4.8055 I0.5967 J-0.1859
G1 X-0.0951 Y0.0555
G3 X0.0299 Y-0.0695 I0.125 J0
G1 Z-0.5 F30
G1 X11.2799 Y-0.0695 F60
G3 X11.4049 Y0.0555 I0 J0.125
G1 X11.4049 Y1.6555
G3 X11.3638 Y1.9205 I-0.875 J0
G3 X11.2444 Y2.1607 I-0.8339 J-0.2651
G3 X11.0577 Y2.3534 I-0.7144 J-0.5052
G3 X10.8215 Y2.4805 I-0.5278 J-0.6979
G3 X10.5579 Y2.53 I-0.2916 J-0.825
G3 X10.2917 Y2.4974 I-0.028 J-0.8746
G2 X9.0174 Y2.2297 I-2.583 J9.1275
G2 X7.7705 Y2.1461 I-1.2067 J8.6629
G2 X6.5245 Y2.2411 I0.0402 J8.7465
G2 X5.2527 Y2.5206 I1.395 J9.3829
G2 X4.0312 Y2.9715 I2.6667 J9.1034
G2 X2.9308 Y3.5639 I3.5852 J7.978
G2 X1.9261 Y4.307 I4.6855 J7.3857
G2 X0.9977 Y5.22 I6.1713 J7.2041
G3 X0.8532 Y5.3404 I-0.4678 J-0.4145
G3 X0.6795 Y5.4123 I-0.3233 J-0.5349
G3 X0.4922 Y5.4293 I-0.1495 J-0.6069
G3 X0.3083 Y5.3899 I0.0378 J-0.6239
G3 X0.1445 Y5.2975 I0.2217 J-0.5844
G3 X0.0156 Y5.1605 I0.3855 J-0.492
G3 X-0.0668 Y4.9914 I0.5144 J-0.355
G3 X-0.0951 Y4.8055 I0.5967 J-0.1859
G1 X-0.0951 Y0.0555
G3 X0.0299 Y-0.0695 I0.125 J0
G1 Z-0.6 F30
G1 X11.2799 Y-0.0695 F60
G3 X11.4049 Y0.0555 I0 J0.125
G1 X11.4049 Y1.6555
G3 X11.3638 Y1.9205 I-0.875 J0
G3 X11.2444 Y2.1607 I-0.8339 J-0.2651
G3 X11.0577 Y2.3534 I-0.7144 J-0.5052
G3 X10.8215 Y2.4805 I-0.5278 J-0.6979
G3 X10.5579 Y2.53 I-0.2916 J-0.825
G3 X10.2917 Y2.4974 I-0.028 J-0.8746
G2 X9.0174 Y2.2297 I-2.583 J9.1275
G2 X7.7705 Y2.1461 I-1.2067 J8.6629
G2 X6.5245 Y2.2411 I0.0402 J8.7465
G2 X5.2527 Y2.5206 I1.395 J9.3829
G2 X4.0312 Y2.9715 I2.6667 J9.1034
G2 X2.9308 Y3.5639 I3.5852 J7.978
G2 X1.9261 Y4.307 I4.6855 J7.3857
G2 X0.9977 Y5.22 I6.1713 J7.2041
G3 X0.8532 Y5.3404 I-0.4678 J-0.4145
G3 X0.6795 Y5.4123 I-0.3233 J-0.5349
G3 X0.4922 Y5.4293 I-0.1495 J-0.6069
G3 X0.3083 Y5.3899 I0.0378 J-0.6239
G3 X0.1445 Y5.2975 I0.2217 J-0.5844
G3 X0.0156 Y5.1605 I0.3855 J-0.492
G3 X-0.0668 Y4.9914 I0.5144 J-0.355
G3 X-0.0951 Y4.8055 I0.5967 J-0.1859
G1 X-0.0951 Y0.0555
G3 X0.0299 Y-0.0695 I0.125 J0
G1 Z-0.7 F30
G1 X11.2799 Y-0.0695 F60
G3 X11.4049 Y0.0555 I0 J0.125
G1 X11.4049 Y1.6555
G3 X11.3638 Y1.9205 I-0.875 J0
G3 X11.2444 Y2.1607 I-0.8339 J-0.2651
G3 X11.0577 Y2.3534 I-0.7144 J-0.5052
G3 X10.8215 Y2.4805 I-0.5278 J-0.6979
G3 X10.5579 Y2.53 I-0.2916 J-0.825
G3 X10.2917 Y2.4974 I-0.028 J-0.8746
G2 X9.0174 Y2.2297 I-2.583 J9.1275
G2 X7.7705 Y2.1461 I-1.2067 J8.6629
G2 X6.5245 Y2.2411 I0.0402 J8.7465
G2 X5.2527 Y2.5206 I1.395 J9.3829
G2 X4.0312 Y2.9715 I2.6667 J9.1034
G2 X2.9308 Y3.5639 I3.5852 J7.978
G2 X1.9261 Y4.307 I4.6855 J7.3857
G2 X0.9977 Y5.22 I6.1713 J7.2041
G3 X0.8532 Y5.3404 I-0.4678 J-0.4145
G3 X0.6795 Y5.4123 I-0.3233 J-0.5349
G3 X0.4922 Y5.4293 I-0.1495 J-0.6069
G3 X0.3083 Y5.3899 I0.0378 J-0.6239
G3 X0.1445 Y5.2975 I0.2217 J-0.5844
G3 X0.0156 Y5.1605 I0.3855 J-0.492
G3 X-0.0668 Y4.9914 I0.5144 J-0.355
G3 X-0.0951 Y4.8055 I0.5967 J-0.1859
G1 X-0.0951 Y0.0555
G3 X0.0299 Y-0.0695 I0.125 J0
G1 Z-0.8 F30
G1 X11.2799 Y-0.0695 F60
G3 X11.4049 Y0.0555 I0 J0.125
G1 X11.4049 Y1.6555
G3 X11.3638 Y1.9205 I-0.875 J0
G3 X11.2444 Y2.1607 I-0.8339 J-0.2651
G3 X11.0577 Y2.3534 I-0.7144 J-0.5052
G3 X10.8215 Y2.4805 I-0.5278 J-0.6979
G3 X10.5579 Y2.53 I-0.2916 J-0.825
G3 X10.2917 Y2.4974 I-0.028 J-0.8746
G2 X9.0174 Y2.2297 I-2.583 J9.1275
G2 X7.7705 Y2.1461 I-1.2067 J8.6629
G2 X6.5245 Y2.2411 I0.0402 J8.7465
G2 X5.2527 Y2.5206 I1.395 J9.3829
G2 X4.0312 Y2.9715 I2.6667 J9.1034
G2 X2.9308 Y3.5639 I3.5852 J7.978
G2 X1.9261 Y4.307 I4.6855 J7.3857
G2 X0.9977 Y5.22 I6.1713 J7.2041
G3 X0.8532 Y5.3404 I-0.4678 J-0.4145
G3 X0.6795 Y5.4123 I-0.3233 J-0.5349
G3 X0.4922 Y5.4293 I-0.1495 J-0.6069
G3 X0.3083 Y5.3899 I0.0378 J-0.6239
G3 X0.1445 Y5.2975 I0.2217 J-0.5844
G3 X0.0156 Y5.1605 I0.3855 J-0.492
G3 X-0.0668 Y4.9914 I0.5144 J-0.355
G3 X-0.0951 Y4.8055 I0.5967 J-0.1859
G1 X-0.0951 Y0.0555
G3 X0.0299 Y-0.0695 I0.125 J0
G0 Z0.2
M5
M30
