(Generated by PartKam Version 0.05)

G20 G90 G40

(pocket 2)
G0 Z0.2
T0 M6
G17
M3
G0 X0.0062 Y0.131
G1 Z-0.1 F30
G1 X7.477 Y0.1421 F60
G1 X7.4614 Y4.5747
G1 X3.6328 Y2.8927
G2 X3.6037 Y2.8839 I-0.0503 J0.1144
G1 X-0.0309 Y2.2595
G1 X-0.0002 Y0.4985
G1 X-0.0002 Y2.0907
G2 X0.1031 Y2.2138 I0.125 J0
G1 X3.7947 Y2.8648
G1 X7.192 Y4.449
G2 X7.3699 Y4.3357 I0.0528 J-0.1133
G1 X7.3699 Y0.3357
G2 X7.2449 Y0.2107 I-0.125 J0
G1 X0.1248 Y0.2107
G2 X0.0032 Y0.307 I0 J0.125
G1 X0.0062 Y0.131
G0 Z0.2
G0 X0.0062 Y0.131
G1 Z-0.2 F30
G1 X7.477 Y0.1421 F60
G1 X7.4614 Y4.5747
G1 X3.6328 Y2.8927
G2 X3.6037 Y2.8839 I-0.0503 J0.1144
G1 X-0.0309 Y2.2595
G1 X-0.0002 Y0.4985
G1 X-0.0002 Y2.0907
G2 X0.1031 Y2.2138 I0.125 J0
G1 X3.7947 Y2.8648
G1 X7.192 Y4.449
G2 X7.3699 Y4.3357 I0.0528 J-0.1133
G1 X7.3699 Y0.3357
G2 X7.2449 Y0.2107 I-0.125 J0
G1 X0.1248 Y0.2107
G2 X0.0032 Y0.307 I0 J0.125
G1 X0.0062 Y0.131
G0 Z0.2
G0 X0.0062 Y0.131
G1 Z-0.3 F30
G1 X7.477 Y0.1421 F60
G1 X7.4614 Y4.5747
G1 X3.6328 Y2.8927
G2 X3.6037 Y2.8839 I-0.0503 J0.1144
G1 X-0.0309 Y2.2595
G1 X-0.0002 Y0.4985
G1 X-0.0002 Y2.0907
G2 X0.1031 Y2.2138 I0.125 J0
G1 X3.7947 Y2.8648
G1 X7.192 Y4.449
G2 X7.3699 Y4.3357 I0.0528 J-0.1133
G1 X7.3699 Y0.3357
G2 X7.2449 Y0.2107 I-0.125 J0
G1 X0.1248 Y0.2107
G2 X0.0032 Y0.307 I0 J0.125
G1 X0.0062 Y0.131
G0 Z0.2
G0 X0.0062 Y0.131
G1 Z-0.4 F30
G1 X7.477 Y0.1421 F60
G1 X7.4614 Y4.5747
G1 X3.6328 Y2.8927
G2 X3.6037 Y2.8839 I-0.0503 J0.1144
G1 X-0.0309 Y2.2595
G1 X-0.0002 Y0.4985
G1 X-0.0002 Y2.0907
G2 X0.1031 Y2.2138 I0.125 J0
G1 X3.7947 Y2.8648
G1 X7.192 Y4.449
G2 X7.3699 Y4.3357 I0.0528 J-0.1133
G1 X7.3699 Y0.3357
G2 X7.2449 Y0.2107 I-0.125 J0
G1 X0.1248 Y0.2107
G2 X0.0032 Y0.307 I0 J0.125
G1 X0.0062 Y0.131
G0 Z0.2
G0 X0.0062 Y0.131
G1 Z-0.45 F30
G1 X7.477 Y0.1421 F60
G1 X7.4614 Y4.5747
G1 X3.6328 Y2.8927
G2 X3.6037 Y2.8839 I-0.0503 J0.1144
G1 X-0.0309 Y2.2595
G1 X-0.0002 Y0.4985
G1 X-0.0002 Y2.0907
G2 X0.1031 Y2.2138 I0.125 J0
G1 X3.7947 Y2.8648
G1 X7.192 Y4.449
G2 X7.3699 Y4.3357 I0.0528 J-0.1133
G1 X7.3699 Y0.3357
G2 X7.2449 Y0.2107 I-0.125 J0
G1 X0.1248 Y0.2107
G2 X0.0032 Y0.307 I0 J0.125
G1 X0.0062 Y0.131

(profile 2)
G0 Z0.2
G0 X0.0144 Y0.0857
G1 Z-0.1 F30
G1 X7.5094 Y0.0857 F60
G3 X7.6344 Y0.2107 I0 J0.125
G1 X7.6344 Y4.5857
G3 X7.5094 Y4.7107 I-0.125 J0
G1 X7.1344 Y4.7107
G3 X7.0691 Y4.6922 I0 J-0.125
G2 X5.3944 Y3.8027 I-8.0319 J13.0998
G2 X3.6783 Y3.1513 I-5.9604 J13.1161
G2 X1.8932 Y2.7234 I-4.2442 J13.7676
G2 X0.0084 Y2.5156 I-2.6229 J15.1406
G3 X-0.1106 Y2.3907 I0.006 J-0.1249
G1 X-0.1106 Y0.2107
G3 X0.0144 Y0.0857 I0.125 J0
G1 Z-0.2 F30
G1 X7.5094 Y0.0857 F60
G3 X7.6344 Y0.2107 I0 J0.125
G1 X7.6344 Y4.5857
G3 X7.5094 Y4.7107 I-0.125 J0
G1 X7.1344 Y4.7107
G3 X7.0691 Y4.6922 I0 J-0.125
G2 X5.3944 Y3.8027 I-8.0319 J13.0998
G2 X3.6783 Y3.1513 I-5.9604 J13.1161
G2 X1.8932 Y2.7234 I-4.2442 J13.7676
G2 X0.0084 Y2.5156 I-2.6229 J15.1406
G3 X-0.1106 Y2.3907 I0.006 J-0.1249
G1 X-0.1106 Y0.2107
G3 X0.0144 Y0.0857 I0.125 J0
G1 Z-0.3 F30
G1 X7.5094 Y0.0857 F60
G3 X7.6344 Y0.2107 I0 J0.125
G1 X7.6344 Y4.5857
G3 X7.5094 Y4.7107 I-0.125 J0
G1 X7.1344 Y4.7107
G3 X7.0691 Y4.6922 I0 J-0.125
G2 X5.3944 Y3.8027 I-8.0319 J13.0998
G2 X3.6783 Y3.1513 I-5.9604 J13.1161
G2 X1.8932 Y2.7234 I-4.2442 J13.7676
G2 X0.0084 Y2.5156 I-2.6229 J15.1406
G3 X-0.1106 Y2.3907 I0.006 J-0.1249
G1 X-0.1106 Y0.2107
G3 X0.0144 Y0.0857 I0.125 J0
G1 Z-0.4 F30
G1 X7.5094 Y0.0857 F60
G3 X7.6344 Y0.2107 I0 J0.125
G1 X7.6344 Y4.5857
G3 X7.5094 Y4.7107 I-0.125 J0
G1 X7.1344 Y4.7107
G3 X7.0691 Y4.6922 I0 J-0.125
G2 X5.3944 Y3.8027 I-8.0319 J13.0998
G2 X3.6783 Y3.1513 I-5.9604 J13.1161
G2 X1.8932 Y2.7234 I-4.2442 J13.7676
G2 X0.0084 Y2.5156 I-2.6229 J15.1406
G3 X-0.1106 Y2.3907 I0.006 J-0.1249
G1 X-0.1106 Y0.2107
G3 X0.0144 Y0.0857 I0.125 J0
G1 Z-0.5 F30
G1 X7.5094 Y0.0857 F60
G3 X7.6344 Y0.2107 I0 J0.125
G1 X7.6344 Y4.5857
G3 X7.5094 Y4.7107 I-0.125 J0
G1 X7.1344 Y4.7107
G3 X7.0691 Y4.6922 I0 J-0.125
G2 X5.3944 Y3.8027 I-8.0319 J13.0998
G2 X3.6783 Y3.1513 I-5.9604 J13.1161
G2 X1.8932 Y2.7234 I-4.2442 J13.7676
G2 X0.0084 Y2.5156 I-2.6229 J15.1406
G3 X-0.1106 Y2.3907 I0.006 J-0.1249
G1 X-0.1106 Y0.2107
G3 X0.0144 Y0.0857 I0.125 J0
G1 Z-0.6 F30
G1 X7.5094 Y0.0857 F60
G3 X7.6344 Y0.2107 I0 J0.125
G1 X7.6344 Y4.5857
G3 X7.5094 Y4.7107 I-0.125 J0
G1 X7.1344 Y4.7107
G3 X7.0691 Y4.6922 I0 J-0.125
G2 X5.3944 Y3.8027 I-8.0319 J13.0998
G2 X3.6783 Y3.1513 I-5.9604 J13.1161
G2 X1.8932 Y2.7234 I-4.2442 J13.7676
G2 X0.0084 Y2.5156 I-2.6229 J15.1406
G3 X-0.1106 Y2.3907 I0.006 J-0.1249
G1 X-0.1106 Y0.2107
G3 X0.0144 Y0.0857 I0.125 J0
G1 Z-0.7 F30
G1 X7.5094 Y0.0857 F60
G3 X7.6344 Y0.2107 I0 J0.125
G1 X7.6344 Y4.5857
G3 X7.5094 Y4.7107 I-0.125 J0
G1 X7.1344 Y4.7107
G3 X7.0691 Y4.6922 I0 J-0.125
G2 X5.3944 Y3.8027 I-8.0319 J13.0998
G2 X3.6783 Y3.1513 I-5.9604 J13.1161
G2 X1.8932 Y2.7234 I-4.2442 J13.7676
G2 X0.0084 Y2.5156 I-2.6229 J15.1406
G3 X-0.1106 Y2.3907 I0.006 J-0.1249
G1 X-0.1106 Y0.2107
G3 X0.0144 Y0.0857 I0.125 J0
G1 Z-0.8 F30
G1 X7.5094 Y0.0857 F60
G3 X7.6344 Y0.2107 I0 J0.125
G1 X7.6344 Y4.5857
G3 X7.5094 Y4.7107 I-0.125 J0
G1 X7.1344 Y4.7107
G3 X7.0691 Y4.6922 I0 J-0.125
G2 X5.3944 Y3.8027 I-8.0319 J13.0998
G2 X3.6783 Y3.1513 I-5.9604 J13.1161
G2 X1.8932 Y2.7234 I-4.2442 J13.7676
G2 X0.0084 Y2.5156 I-2.6229 J15.1406
G3 X-0.1106 Y2.3907 I0.006 J-0.1249
G1 X-0.1106 Y0.2107
G3 X0.0144 Y0.0857 I0.125 J0
G0 Z0.2
M5
M30
