(Generated by PartKam Version 0.05)

G20 G90 G40

(pocket 1)
G0 Z0.2
T0 M6
G17
M3
G0 X0.1233 Y2.3189
G1 Z-0.1 F30
G1 X3.2215 Y2.8652 F60
G1 X0.1231 Y2.333
G1 X0.1233 Y2.3189
G0 Z0.2
G0 X4.3085 Y3.2147
G1 Z-0.1 F30
G1 X3.7255 Y2.9586 F60
G2 X3.7034 Y2.9502 I-0.0905 J0.206
G1 X3.7644 Y2.961
G1 X4.3085 Y3.2147
G0 Z0.2
G0 X7.3321 Y4.5431
G1 Z-0.1 F30
G2 X7.4147 Y4.4832 I-0.0873 J-0.2074 F60
G1 X7.4144 Y4.5792
G1 X7.3321 Y4.5431
G0 Z0.2
G0 X7.192 Y4.449
G1 Z-0.1 F30
G2 X7.3699 Y4.3357 I0.0528 J-0.1133 F60
G1 X7.3699 Y0.3357
G2 X7.3645 Y0.2993 I-0.125 J0
G1 X7.5295 Y0.2996
G1 X7.5139 Y4.7321
G1 X3.6853 Y3.0501
G2 X3.6562 Y3.0414 I-0.0503 J0.1144
G1 X0.0216 Y2.417
G1 X0.0259 Y2.1672
G2 X0.1031 Y2.2138 I0.0989 J-0.0765
G1 X3.7947 Y2.8648
G1 X7.192 Y4.449
G0 Z0.2
G0 X0.1233 Y2.3189
G1 Z-0.2 F30
G1 X3.2215 Y2.8652 F60
G1 X0.1231 Y2.333
G1 X0.1233 Y2.3189
G0 Z0.2
G0 X4.3085 Y3.2147
G1 Z-0.2 F30
G1 X3.7255 Y2.9586 F60
G2 X3.7034 Y2.9502 I-0.0905 J0.206
G1 X3.7644 Y2.961
G1 X4.3085 Y3.2147
G0 Z0.2
G0 X7.3321 Y4.5431
G1 Z-0.2 F30
G2 X7.4147 Y4.4832 I-0.0873 J-0.2074 F60
G1 X7.4144 Y4.5792
G1 X7.3321 Y4.5431
G0 Z0.2
G0 X7.192 Y4.449
G1 Z-0.2 F30
G2 X7.3699 Y4.3357 I0.0528 J-0.1133 F60
G1 X7.3699 Y0.3357
G2 X7.3645 Y0.2993 I-0.125 J0
G1 X7.5295 Y0.2996
G1 X7.5139 Y4.7321
G1 X3.6853 Y3.0501
G2 X3.6562 Y3.0414 I-0.0503 J0.1144
G1 X0.0216 Y2.417
G1 X0.0259 Y2.1672
G2 X0.1031 Y2.2138 I0.0989 J-0.0765
G1 X3.7947 Y2.8648
G1 X7.192 Y4.449
G0 Z0.2
G0 X0.1233 Y2.3189
G1 Z-0.3 F30
G1 X3.2215 Y2.8652 F60
G1 X0.1231 Y2.333
G1 X0.1233 Y2.3189
G0 Z0.2
G0 X4.3085 Y3.2147
G1 Z-0.3 F30
G1 X3.7255 Y2.9586 F60
G2 X3.7034 Y2.9502 I-0.0905 J0.206
G1 X3.7644 Y2.961
G1 X4.3085 Y3.2147
G0 Z0.2
G0 X7.3321 Y4.5431
G1 Z-0.3 F30
G2 X7.4147 Y4.4832 I-0.0873 J-0.2074 F60
G1 X7.4144 Y4.5792
G1 X7.3321 Y4.5431
G0 Z0.2
G0 X7.192 Y4.449
G1 Z-0.3 F30
G2 X7.3699 Y4.3357 I0.0528 J-0.1133 F60
G1 X7.3699 Y0.3357
G2 X7.3645 Y0.2993 I-0.125 J0
G1 X7.5295 Y0.2996
G1 X7.5139 Y4.7321
G1 X3.6853 Y3.0501
G2 X3.6562 Y3.0414 I-0.0503 J0.1144
G1 X0.0216 Y2.417
G1 X0.0259 Y2.1672
G2 X0.1031 Y2.2138 I0.0989 J-0.0765
G1 X3.7947 Y2.8648
G1 X7.192 Y4.449
G0 Z0.2
G0 X0.1233 Y2.3189
G1 Z-0.4 F30
G1 X3.2215 Y2.8652 F60
G1 X0.1231 Y2.333
G1 X0.1233 Y2.3189
G0 Z0.2
G0 X4.3085 Y3.2147
G1 Z-0.4 F30
G1 X3.7255 Y2.9586 F60
G2 X3.7034 Y2.9502 I-0.0905 J0.206
G1 X3.7644 Y2.961
G1 X4.3085 Y3.2147
G0 Z0.2
G0 X7.3321 Y4.5431
G1 Z-0.4 F30
G2 X7.4147 Y4.4832 I-0.0873 J-0.2074 F60
G1 X7.4144 Y4.5792
G1 X7.3321 Y4.5431
G0 Z0.2
G0 X7.192 Y4.449
G1 Z-0.4 F30
G2 X7.3699 Y4.3357 I0.0528 J-0.1133 F60
G1 X7.3699 Y0.3357
G2 X7.3645 Y0.2993 I-0.125 J0
G1 X7.5295 Y0.2996
G1 X7.5139 Y4.7321
G1 X3.6853 Y3.0501
G2 X3.6562 Y3.0414 I-0.0503 J0.1144
G1 X0.0216 Y2.417
G1 X0.0259 Y2.1672
G2 X0.1031 Y2.2138 I0.0989 J-0.0765
G1 X3.7947 Y2.8648
G1 X7.192 Y4.449
G0 Z0.2
G0 X0.1233 Y2.3189
G1 Z-0.45 F30
G1 X3.2215 Y2.8652 F60
G1 X0.1231 Y2.333
G1 X0.1233 Y2.3189
G0 Z0.2
G0 X4.3085 Y3.2147
G1 Z-0.45 F30
G1 X3.7255 Y2.9586 F60
G2 X3.7034 Y2.9502 I-0.0905 J0.206
G1 X3.7644 Y2.961
G1 X4.3085 Y3.2147
G0 Z0.2
G0 X7.3321 Y4.5431
G1 Z-0.45 F30
G2 X7.4147 Y4.4832 I-0.0873 J-0.2074 F60
G1 X7.4144 Y4.5792
G1 X7.3321 Y4.5431
G0 Z0.2
G0 X7.192 Y4.449
G1 Z-0.45 F30
G2 X7.3699 Y4.3357 I0.0528 J-0.1133 F60
G1 X7.3699 Y0.3357
G2 X7.3645 Y0.2993 I-0.125 J0
G1 X7.5295 Y0.2996
G1 X7.5139 Y4.7321
G1 X3.6853 Y3.0501
G2 X3.6562 Y3.0414 I-0.0503 J0.1144
G1 X0.0216 Y2.417
G1 X0.0259 Y2.1672
G2 X0.1031 Y2.2138 I0.0989 J-0.0765
G1 X3.7947 Y2.8648
G1 X7.192 Y4.449

(profile 2)
G0 Z0.2
G0 X0.0144 Y0.0857
G1 Z-0.1 F30
G1 X7.5094 Y0.0857 F60
G3 X7.6344 Y0.2107 I0 J0.125
G1 X7.6344 Y4.5857
G3 X7.5094 Y4.7107 I-0.125 J0
G1 X7.1344 Y4.7107
G3 X7.0691 Y4.6922 I0 J-0.125
G2 X5.3944 Y3.8027 I-8.0319 J13.0998
G2 X3.6783 Y3.1513 I-5.9604 J13.1161
G2 X1.8932 Y2.7234 I-4.2442 J13.7676
G2 X0.0084 Y2.5156 I-2.6229 J15.1406
G3 X-0.1106 Y2.3907 I0.006 J-0.1249
G1 X-0.1106 Y0.2107
G3 X0.0144 Y0.0857 I0.125 J0
G1 Z-0.2 F30
G1 X7.5094 Y0.0857 F60
G3 X7.6344 Y0.2107 I0 J0.125
G1 X7.6344 Y4.5857
G3 X7.5094 Y4.7107 I-0.125 J0
G1 X7.1344 Y4.7107
G3 X7.0691 Y4.6922 I0 J-0.125
G2 X5.3944 Y3.8027 I-8.0319 J13.0998
G2 X3.6783 Y3.1513 I-5.9604 J13.1161
G2 X1.8932 Y2.7234 I-4.2442 J13.7676
G2 X0.0084 Y2.5156 I-2.6229 J15.1406
G3 X-0.1106 Y2.3907 I0.006 J-0.1249
G1 X-0.1106 Y0.2107
G3 X0.0144 Y0.0857 I0.125 J0
G1 Z-0.3 F30
G1 X7.5094 Y0.0857 F60
G3 X7.6344 Y0.2107 I0 J0.125
G1 X7.6344 Y4.5857
G3 X7.5094 Y4.7107 I-0.125 J0
G1 X7.1344 Y4.7107
G3 X7.0691 Y4.6922 I0 J-0.125
G2 X5.3944 Y3.8027 I-8.0319 J13.0998
G2 X3.6783 Y3.1513 I-5.9604 J13.1161
G2 X1.8932 Y2.7234 I-4.2442 J13.7676
G2 X0.0084 Y2.5156 I-2.6229 J15.1406
G3 X-0.1106 Y2.3907 I0.006 J-0.1249
G1 X-0.1106 Y0.2107
G3 X0.0144 Y0.0857 I0.125 J0
G1 Z-0.4 F30
G1 X7.5094 Y0.0857 F60
G3 X7.6344 Y0.2107 I0 J0.125
G1 X7.6344 Y4.5857
G3 X7.5094 Y4.7107 I-0.125 J0
G1 X7.1344 Y4.7107
G3 X7.0691 Y4.6922 I0 J-0.125
G2 X5.3944 Y3.8027 I-8.0319 J13.0998
G2 X3.6783 Y3.1513 I-5.9604 J13.1161
G2 X1.8932 Y2.7234 I-4.2442 J13.7676
G2 X0.0084 Y2.5156 I-2.6229 J15.1406
G3 X-0.1106 Y2.3907 I0.006 J-0.1249
G1 X-0.1106 Y0.2107
G3 X0.0144 Y0.0857 I0.125 J0
G1 Z-0.5 F30
G1 X7.5094 Y0.0857 F60
G3 X7.6344 Y0.2107 I0 J0.125
G1 X7.6344 Y4.5857
G3 X7.5094 Y4.7107 I-0.125 J0
G1 X7.1344 Y4.7107
G3 X7.0691 Y4.6922 I0 J-0.125
G2 X5.3944 Y3.8027 I-8.0319 J13.0998
G2 X3.6783 Y3.1513 I-5.9604 J13.1161
G2 X1.8932 Y2.7234 I-4.2442 J13.7676
G2 X0.0084 Y2.5156 I-2.6229 J15.1406
G3 X-0.1106 Y2.3907 I0.006 J-0.1249
G1 X-0.1106 Y0.2107
G3 X0.0144 Y0.0857 I0.125 J0
G1 Z-0.6 F30
G1 X7.5094 Y0.0857 F60
G3 X7.6344 Y0.2107 I0 J0.125
G1 X7.6344 Y4.5857
G3 X7.5094 Y4.7107 I-0.125 J0
G1 X7.1344 Y4.7107
G3 X7.0691 Y4.6922 I0 J-0.125
G2 X5.3944 Y3.8027 I-8.0319 J13.0998
G2 X3.6783 Y3.1513 I-5.9604 J13.1161
G2 X1.8932 Y2.7234 I-4.2442 J13.7676
G2 X0.0084 Y2.5156 I-2.6229 J15.1406
G3 X-0.1106 Y2.3907 I0.006 J-0.1249
G1 X-0.1106 Y0.2107
G3 X0.0144 Y0.0857 I0.125 J0
G1 Z-0.7 F30
G1 X7.5094 Y0.0857 F60
G3 X7.6344 Y0.2107 I0 J0.125
G1 X7.6344 Y4.5857
G3 X7.5094 Y4.7107 I-0.125 J0
G1 X7.1344 Y4.7107
G3 X7.0691 Y4.6922 I0 J-0.125
G2 X5.3944 Y3.8027 I-8.0319 J13.0998
G2 X3.6783 Y3.1513 I-5.9604 J13.1161
G2 X1.8932 Y2.7234 I-4.2442 J13.7676
G2 X0.0084 Y2.5156 I-2.6229 J15.1406
G3 X-0.1106 Y2.3907 I0.006 J-0.1249
G1 X-0.1106 Y0.2107
G3 X0.0144 Y0.0857 I0.125 J0
G1 Z-0.8 F30
G1 X7.5094 Y0.0857 F60
G3 X7.6344 Y0.2107 I0 J0.125
G1 X7.6344 Y4.5857
G3 X7.5094 Y4.7107 I-0.125 J0
G1 X7.1344 Y4.7107
G3 X7.0691 Y4.6922 I0 J-0.125
G2 X5.3944 Y3.8027 I-8.0319 J13.0998
G2 X3.6783 Y3.1513 I-5.9604 J13.1161
G2 X1.8932 Y2.7234 I-4.2442 J13.7676
G2 X0.0084 Y2.5156 I-2.6229 J15.1406
G3 X-0.1106 Y2.3907 I0.006 J-0.1249
G1 X-0.1106 Y0.2107
G3 X0.0144 Y0.0857 I0.125 J0
G0 Z0.2
M5
M30
