(Generated by PartKam Version 0.05)

G20 G90 G40

(pocket 2)
G0 Z0.2
T0 M6
G17
M3
G0 X7.3701 Y0.3917
G1 Z-0.1 F30
G3 X7.4951 Y0.5167 I0 J0.125 F60
G1 X7.4951 Y2.2718
G3 X7.3918 Y2.3949 I-0.125 J0
G1 X3.7002 Y3.0458
G1 X0.3028 Y4.63
G3 X0.125 Y4.5167 I-0.0528 J-0.1133
G1 X0.125 Y0.5167
G3 X0.25 Y0.3917 I0.125 J0
G1 X7.3701 Y0.3917
G0 Z0.2
G0 X0.0781 Y0.356
G1 Z-0.1 F30
G1 X7.5489 Y0.3449 F60
G1 X7.586 Y2.4733
G1 X3.9514 Y3.0977
G2 X3.9223 Y3.1065 I0.0212 J0.1232
G1 X0.0937 Y4.7885
G1 X0.0781 Y0.356
G0 Z0.2
G0 X7.3701 Y0.3917
G1 Z-0.2 F30
G3 X7.4951 Y0.5167 I0 J0.125 F60
G1 X7.4951 Y2.2718
G3 X7.3918 Y2.3949 I-0.125 J0
G1 X3.7002 Y3.0458
G1 X0.3028 Y4.63
G3 X0.125 Y4.5167 I-0.0528 J-0.1133
G1 X0.125 Y0.5167
G3 X0.25 Y0.3917 I0.125 J0
G1 X7.3701 Y0.3917
G0 Z0.2
G0 X0.0781 Y0.356
G1 Z-0.2 F30
G1 X7.5489 Y0.3449 F60
G1 X7.586 Y2.4733
G1 X3.9514 Y3.0977
G2 X3.9223 Y3.1065 I0.0212 J0.1232
G1 X0.0937 Y4.7885
G1 X0.0781 Y0.356
G0 Z0.2
G0 X7.3701 Y0.3917
G1 Z-0.3 F30
G3 X7.4951 Y0.5167 I0 J0.125 F60
G1 X7.4951 Y2.2718
G3 X7.3918 Y2.3949 I-0.125 J0
G1 X3.7002 Y3.0458
G1 X0.3028 Y4.63
G3 X0.125 Y4.5167 I-0.0528 J-0.1133
G1 X0.125 Y0.5167
G3 X0.25 Y0.3917 I0.125 J0
G1 X7.3701 Y0.3917
G0 Z0.2
G0 X0.0781 Y0.356
G1 Z-0.3 F30
G1 X7.5489 Y0.3449 F60
G1 X7.586 Y2.4733
G1 X3.9514 Y3.0977
G2 X3.9223 Y3.1065 I0.0212 J0.1232
G1 X0.0937 Y4.7885
G1 X0.0781 Y0.356
G0 Z0.2
G0 X7.3701 Y0.3917
G1 Z-0.4 F30
G3 X7.4951 Y0.5167 I0 J0.125 F60
G1 X7.4951 Y2.2718
G3 X7.3918 Y2.3949 I-0.125 J0
G1 X3.7002 Y3.0458
G1 X0.3028 Y4.63
G3 X0.125 Y4.5167 I-0.0528 J-0.1133
G1 X0.125 Y0.5167
G3 X0.25 Y0.3917 I0.125 J0
G1 X7.3701 Y0.3917
G0 Z0.2
G0 X0.0781 Y0.356
G1 Z-0.4 F30
G1 X7.5489 Y0.3449 F60
G1 X7.586 Y2.4733
G1 X3.9514 Y3.0977
G2 X3.9223 Y3.1065 I0.0212 J0.1232
G1 X0.0937 Y4.7885
G1 X0.0781 Y0.356
G0 Z0.2
G0 X7.3701 Y0.3917
G1 Z-0.45 F30
G3 X7.4951 Y0.5167 I0 J0.125 F60
G1 X7.4951 Y2.2718
G3 X7.3918 Y2.3949 I-0.125 J0
G1 X3.7002 Y3.0458
G1 X0.3028 Y4.63
G3 X0.125 Y4.5167 I-0.0528 J-0.1133
G1 X0.125 Y0.5167
G3 X0.25 Y0.3917 I0.125 J0
G1 X7.3701 Y0.3917
G0 Z0.2
G0 X0.0781 Y0.356
G1 Z-0.45 F30
G1 X7.5489 Y0.3449 F60
G1 X7.586 Y2.4733
G1 X3.9514 Y3.0977
G2 X3.9223 Y3.1065 I0.0212 J0.1232
G1 X0.0937 Y4.7885
G1 X0.0781 Y0.356

(profile 2)
G0 Z0.2
G0 X0 Y0.2667
G1 Z-0.1 F30
G1 X7.4951 Y0.2667 F60
G3 X7.6201 Y0.3917 I0 J0.125
G1 X7.6201 Y2.5718
G3 X7.5011 Y2.6966 I-0.125 J0
G2 X5.6162 Y2.9044 I0.738 J15.3483
G2 X3.8312 Y3.3323 I2.4592 J14.1955
G2 X2.115 Y3.9837 I4.2442 J13.7676
G2 X0.4403 Y4.8733 I6.3572 J13.9894
G3 X0.375 Y4.8917 I-0.0653 J-0.1066
G1 X0 Y4.8917
G3 X-0.125 Y4.7667 I0 J-0.125
G1 X-0.125 Y0.3917
G3 X0 Y0.2667 I0.125 J0
G1 Z-0.2 F30
G1 X7.4951 Y0.2667 F60
G3 X7.6201 Y0.3917 I0 J0.125
G1 X7.6201 Y2.5718
G3 X7.5011 Y2.6966 I-0.125 J0
G2 X5.6162 Y2.9044 I0.738 J15.3483
G2 X3.8312 Y3.3323 I2.4592 J14.1955
G2 X2.115 Y3.9837 I4.2442 J13.7676
G2 X0.4403 Y4.8733 I6.3572 J13.9894
G3 X0.375 Y4.8917 I-0.0653 J-0.1066
G1 X0 Y4.8917
G3 X-0.125 Y4.7667 I0 J-0.125
G1 X-0.125 Y0.3917
G3 X0 Y0.2667 I0.125 J0
G1 Z-0.3 F30
G1 X7.4951 Y0.2667 F60
G3 X7.6201 Y0.3917 I0 J0.125
G1 X7.6201 Y2.5718
G3 X7.5011 Y2.6966 I-0.125 J0
G2 X5.6162 Y2.9044 I0.738 J15.3483
G2 X3.8312 Y3.3323 I2.4592 J14.1955
G2 X2.115 Y3.9837 I4.2442 J13.7676
G2 X0.4403 Y4.8733 I6.3572 J13.9894
G3 X0.375 Y4.8917 I-0.0653 J-0.1066
G1 X0 Y4.8917
G3 X-0.125 Y4.7667 I0 J-0.125
G1 X-0.125 Y0.3917
G3 X0 Y0.2667 I0.125 J0
G1 Z-0.4 F30
G1 X7.4951 Y0.2667 F60
G3 X7.6201 Y0.3917 I0 J0.125
G1 X7.6201 Y2.5718
G3 X7.5011 Y2.6966 I-0.125 J0
G2 X5.6162 Y2.9044 I0.738 J15.3483
G2 X3.8312 Y3.3323 I2.4592 J14.1955
G2 X2.115 Y3.9837 I4.2442 J13.7676
G2 X0.4403 Y4.8733 I6.3572 J13.9894
G3 X0.375 Y4.8917 I-0.0653 J-0.1066
G1 X0 Y4.8917
G3 X-0.125 Y4.7667 I0 J-0.125
G1 X-0.125 Y0.3917
G3 X0 Y0.2667 I0.125 J0
G1 Z-0.5 F30
G1 X7.4951 Y0.2667 F60
G3 X7.6201 Y0.3917 I0 J0.125
G1 X7.6201 Y2.5718
G3 X7.5011 Y2.6966 I-0.125 J0
G2 X5.6162 Y2.9044 I0.738 J15.3483
G2 X3.8312 Y3.3323 I2.4592 J14.1955
G2 X2.115 Y3.9837 I4.2442 J13.7676
G2 X0.4403 Y4.8733 I6.3572 J13.9894
G3 X0.375 Y4.8917 I-0.0653 J-0.1066
G1 X0 Y4.8917
G3 X-0.125 Y4.7667 I0 J-0.125
G1 X-0.125 Y0.3917
G3 X0 Y0.2667 I0.125 J0
G1 Z-0.6 F30
G1 X7.4951 Y0.2667 F60
G3 X7.6201 Y0.3917 I0 J0.125
G1 X7.6201 Y2.5718
G3 X7.5011 Y2.6966 I-0.125 J0
G2 X5.6162 Y2.9044 I0.738 J15.3483
G2 X3.8312 Y3.3323 I2.4592 J14.1955
G2 X2.115 Y3.9837 I4.2442 J13.7676
G2 X0.4403 Y4.8733 I6.3572 J13.9894
G3 X0.375 Y4.8917 I-0.0653 J-0.1066
G1 X0 Y4.8917
G3 X-0.125 Y4.7667 I0 J-0.125
G1 X-0.125 Y0.3917
G3 X0 Y0.2667 I0.125 J0
G1 Z-0.7 F30
G1 X7.4951 Y0.2667 F60
G3 X7.6201 Y0.3917 I0 J0.125
G1 X7.6201 Y2.5718
G3 X7.5011 Y2.6966 I-0.125 J0
G2 X5.6162 Y2.9044 I0.738 J15.3483
G2 X3.8312 Y3.3323 I2.4592 J14.1955
G2 X2.115 Y3.9837 I4.2442 J13.7676
G2 X0.4403 Y4.8733 I6.3572 J13.9894
G3 X0.375 Y4.8917 I-0.0653 J-0.1066
G1 X0 Y4.8917
G3 X-0.125 Y4.7667 I0 J-0.125
G1 X-0.125 Y0.3917
G3 X0 Y0.2667 I0.125 J0
G1 Z-0.8 F30
G1 X7.4951 Y0.2667 F60
G3 X7.6201 Y0.3917 I0 J0.125
G1 X7.6201 Y2.5718
G3 X7.5011 Y2.6966 I-0.125 J0
G2 X5.6162 Y2.9044 I0.738 J15.3483
G2 X3.8312 Y3.3323 I2.4592 J14.1955
G2 X2.115 Y3.9837 I4.2442 J13.7676
G2 X0.4403 Y4.8733 I6.3572 J13.9894
G3 X0.375 Y4.8917 I-0.0653 J-0.1066
G1 X0 Y4.8917
G3 X-0.125 Y4.7667 I0 J-0.125
G1 X-0.125 Y0.3917
G3 X0 Y0.2667 I0.125 J0
G0 Z0.2
M5
M30
