(Generated by PartKam Version 0.05)

G20 G90 G40

(pocket 1)
G0 Z0.2
T0 M6
G17
M3
G0 X3.8033 Y3.1292
G1 Z-0.1 F30
G1 X3.0205 Y3.4731 F60
G1 X3.7305 Y3.142
G1 X3.8033 Y3.1292
G0 Z0.2
G0 X7.4384 Y2.4892
G1 Z-0.1 F30
G1 X7.2189 Y2.5269 F60
G1 X7.4091 Y2.4934
G2 X7.4384 Y2.4861 I-0.0391 J-0.2216
G1 X7.4384 Y2.4892
G0 Z0.2
G0 X0.147 Y4.7168
G1 Z-0.1 F30
G2 X0.168 Y4.7262 I0.103 J-0.2001 F60
G1 X0.1471 Y4.7354
G1 X0.147 Y4.7168
G0 Z0.2
G0 X0.3028 Y4.63
G1 Z-0.1 F30
G1 X3.7002 Y3.0458 F60
G1 X7.3918 Y2.3949
G2 X7.4951 Y2.2718 I-0.0217 J-0.1231
G1 X7.4951 Y0.5167
G2 X7.4723 Y0.4448 I-0.125 J0
G1 X7.5028 Y0.4447
G1 X7.5399 Y2.5732
G1 X3.9053 Y3.1976
G2 X3.8762 Y3.2064 I0.0212 J0.1232
G1 X0.0476 Y4.8884
G1 X0.032 Y0.4558
G1 X0.1409 Y0.4557
G2 X0.125 Y0.5167 I0.1091 J0.0611
G1 X0.125 Y4.5167
G2 X0.3028 Y4.63 I0.125 J0
G0 Z0.2
G0 X3.8033 Y3.1292
G1 Z-0.2 F30
G1 X3.0205 Y3.4731 F60
G1 X3.7305 Y3.142
G1 X3.8033 Y3.1292
G0 Z0.2
G0 X7.4384 Y2.4892
G1 Z-0.2 F30
G1 X7.2189 Y2.5269 F60
G1 X7.4091 Y2.4934
G2 X7.4384 Y2.4861 I-0.0391 J-0.2216
G1 X7.4384 Y2.4892
G0 Z0.2
G0 X0.147 Y4.7168
G1 Z-0.2 F30
G2 X0.168 Y4.7262 I0.103 J-0.2001 F60
G1 X0.1471 Y4.7354
G1 X0.147 Y4.7168
G0 Z0.2
G0 X0.3028 Y4.63
G1 Z-0.2 F30
G1 X3.7002 Y3.0458 F60
G1 X7.3918 Y2.3949
G2 X7.4951 Y2.2718 I-0.0217 J-0.1231
G1 X7.4951 Y0.5167
G2 X7.4723 Y0.4448 I-0.125 J0
G1 X7.5028 Y0.4447
G1 X7.5399 Y2.5732
G1 X3.9053 Y3.1976
G2 X3.8762 Y3.2064 I0.0212 J0.1232
G1 X0.0476 Y4.8884
G1 X0.032 Y0.4558
G1 X0.1409 Y0.4557
G2 X0.125 Y0.5167 I0.1091 J0.0611
G1 X0.125 Y4.5167
G2 X0.3028 Y4.63 I0.125 J0
G0 Z0.2
G0 X3.8033 Y3.1292
G1 Z-0.3 F30
G1 X3.0205 Y3.4731 F60
G1 X3.7305 Y3.142
G1 X3.8033 Y3.1292
G0 Z0.2
G0 X7.4384 Y2.4892
G1 Z-0.3 F30
G1 X7.2189 Y2.5269 F60
G1 X7.4091 Y2.4934
G2 X7.4384 Y2.4861 I-0.0391 J-0.2216
G1 X7.4384 Y2.4892
G0 Z0.2
G0 X0.147 Y4.7168
G1 Z-0.3 F30
G2 X0.168 Y4.7262 I0.103 J-0.2001 F60
G1 X0.1471 Y4.7354
G1 X0.147 Y4.7168
G0 Z0.2
G0 X0.3028 Y4.63
G1 Z-0.3 F30
G1 X3.7002 Y3.0458 F60
G1 X7.3918 Y2.3949
G2 X7.4951 Y2.2718 I-0.0217 J-0.1231
G1 X7.4951 Y0.5167
G2 X7.4723 Y0.4448 I-0.125 J0
G1 X7.5028 Y0.4447
G1 X7.5399 Y2.5732
G1 X3.9053 Y3.1976
G2 X3.8762 Y3.2064 I0.0212 J0.1232
G1 X0.0476 Y4.8884
G1 X0.032 Y0.4558
G1 X0.1409 Y0.4557
G2 X0.125 Y0.5167 I0.1091 J0.0611
G1 X0.125 Y4.5167
G2 X0.3028 Y4.63 I0.125 J0
G0 Z0.2
G0 X3.8033 Y3.1292
G1 Z-0.4 F30
G1 X3.0205 Y3.4731 F60
G1 X3.7305 Y3.142
G1 X3.8033 Y3.1292
G0 Z0.2
G0 X7.4384 Y2.4892
G1 Z-0.4 F30
G1 X7.2189 Y2.5269 F60
G1 X7.4091 Y2.4934
G2 X7.4384 Y2.4861 I-0.0391 J-0.2216
G1 X7.4384 Y2.4892
G0 Z0.2
G0 X0.147 Y4.7168
G1 Z-0.4 F30
G2 X0.168 Y4.7262 I0.103 J-0.2001 F60
G1 X0.1471 Y4.7354
G1 X0.147 Y4.7168
G0 Z0.2
G0 X0.3028 Y4.63
G1 Z-0.4 F30
G1 X3.7002 Y3.0458 F60
G1 X7.3918 Y2.3949
G2 X7.4951 Y2.2718 I-0.0217 J-0.1231
G1 X7.4951 Y0.5167
G2 X7.4723 Y0.4448 I-0.125 J0
G1 X7.5028 Y0.4447
G1 X7.5399 Y2.5732
G1 X3.9053 Y3.1976
G2 X3.8762 Y3.2064 I0.0212 J0.1232
G1 X0.0476 Y4.8884
G1 X0.032 Y0.4558
G1 X0.1409 Y0.4557
G2 X0.125 Y0.5167 I0.1091 J0.0611
G1 X0.125 Y4.5167
G2 X0.3028 Y4.63 I0.125 J0
G0 Z0.2
G0 X3.8033 Y3.1292
G1 Z-0.45 F30
G1 X3.0205 Y3.4731 F60
G1 X3.7305 Y3.142
G1 X3.8033 Y3.1292
G0 Z0.2
G0 X7.4384 Y2.4892
G1 Z-0.45 F30
G1 X7.2189 Y2.5269 F60
G1 X7.4091 Y2.4934
G2 X7.4384 Y2.4861 I-0.0391 J-0.2216
G1 X7.4384 Y2.4892
G0 Z0.2
G0 X0.147 Y4.7168
G1 Z-0.45 F30
G2 X0.168 Y4.7262 I0.103 J-0.2001 F60
G1 X0.1471 Y4.7354
G1 X0.147 Y4.7168
G0 Z0.2
G0 X0.3028 Y4.63
G1 Z-0.45 F30
G1 X3.7002 Y3.0458 F60
G1 X7.3918 Y2.3949
G2 X7.4951 Y2.2718 I-0.0217 J-0.1231
G1 X7.4951 Y0.5167
G2 X7.4723 Y0.4448 I-0.125 J0
G1 X7.5028 Y0.4447
G1 X7.5399 Y2.5732
G1 X3.9053 Y3.1976
G2 X3.8762 Y3.2064 I0.0212 J0.1232
G1 X0.0476 Y4.8884
G1 X0.032 Y0.4558
G1 X0.1409 Y0.4557
G2 X0.125 Y0.5167 I0.1091 J0.0611
G1 X0.125 Y4.5167
G2 X0.3028 Y4.63 I0.125 J0

(profile 2)
G0 Z0.2
G0 X0 Y0.2667
G1 Z-0.1 F30
G1 X7.4951 Y0.2667 F60
G3 X7.6201 Y0.3917 I0 J0.125
G1 X7.6201 Y2.5718
G3 X7.5011 Y2.6966 I-0.125 J0
G2 X5.6162 Y2.9044 I0.738 J15.3483
G2 X3.8312 Y3.3323 I2.4592 J14.1955
G2 X2.115 Y3.9837 I4.2442 J13.7676
G2 X0.4403 Y4.8733 I6.3572 J13.9894
G3 X0.375 Y4.8917 I-0.0653 J-0.1066
G1 X0 Y4.8917
G3 X-0.125 Y4.7667 I0 J-0.125
G1 X-0.125 Y0.3917
G3 X0 Y0.2667 I0.125 J0
G1 Z-0.2 F30
G1 X7.4951 Y0.2667 F60
G3 X7.6201 Y0.3917 I0 J0.125
G1 X7.6201 Y2.5718
G3 X7.5011 Y2.6966 I-0.125 J0
G2 X5.6162 Y2.9044 I0.738 J15.3483
G2 X3.8312 Y3.3323 I2.4592 J14.1955
G2 X2.115 Y3.9837 I4.2442 J13.7676
G2 X0.4403 Y4.8733 I6.3572 J13.9894
G3 X0.375 Y4.8917 I-0.0653 J-0.1066
G1 X0 Y4.8917
G3 X-0.125 Y4.7667 I0 J-0.125
G1 X-0.125 Y0.3917
G3 X0 Y0.2667 I0.125 J0
G1 Z-0.3 F30
G1 X7.4951 Y0.2667 F60
G3 X7.6201 Y0.3917 I0 J0.125
G1 X7.6201 Y2.5718
G3 X7.5011 Y2.6966 I-0.125 J0
G2 X5.6162 Y2.9044 I0.738 J15.3483
G2 X3.8312 Y3.3323 I2.4592 J14.1955
G2 X2.115 Y3.9837 I4.2442 J13.7676
G2 X0.4403 Y4.8733 I6.3572 J13.9894
G3 X0.375 Y4.8917 I-0.0653 J-0.1066
G1 X0 Y4.8917
G3 X-0.125 Y4.7667 I0 J-0.125
G1 X-0.125 Y0.3917
G3 X0 Y0.2667 I0.125 J0
G1 Z-0.4 F30
G1 X7.4951 Y0.2667 F60
G3 X7.6201 Y0.3917 I0 J0.125
G1 X7.6201 Y2.5718
G3 X7.5011 Y2.6966 I-0.125 J0
G2 X5.6162 Y2.9044 I0.738 J15.3483
G2 X3.8312 Y3.3323 I2.4592 J14.1955
G2 X2.115 Y3.9837 I4.2442 J13.7676
G2 X0.4403 Y4.8733 I6.3572 J13.9894
G3 X0.375 Y4.8917 I-0.0653 J-0.1066
G1 X0 Y4.8917
G3 X-0.125 Y4.7667 I0 J-0.125
G1 X-0.125 Y0.3917
G3 X0 Y0.2667 I0.125 J0
G1 Z-0.5 F30
G1 X7.4951 Y0.2667 F60
G3 X7.6201 Y0.3917 I0 J0.125
G1 X7.6201 Y2.5718
G3 X7.5011 Y2.6966 I-0.125 J0
G2 X5.6162 Y2.9044 I0.738 J15.3483
G2 X3.8312 Y3.3323 I2.4592 J14.1955
G2 X2.115 Y3.9837 I4.2442 J13.7676
G2 X0.4403 Y4.8733 I6.3572 J13.9894
G3 X0.375 Y4.8917 I-0.0653 J-0.1066
G1 X0 Y4.8917
G3 X-0.125 Y4.7667 I0 J-0.125
G1 X-0.125 Y0.3917
G3 X0 Y0.2667 I0.125 J0
G1 Z-0.6 F30
G1 X7.4951 Y0.2667 F60
G3 X7.6201 Y0.3917 I0 J0.125
G1 X7.6201 Y2.5718
G3 X7.5011 Y2.6966 I-0.125 J0
G2 X5.6162 Y2.9044 I0.738 J15.3483
G2 X3.8312 Y3.3323 I2.4592 J14.1955
G2 X2.115 Y3.9837 I4.2442 J13.7676
G2 X0.4403 Y4.8733 I6.3572 J13.9894
G3 X0.375 Y4.8917 I-0.0653 J-0.1066
G1 X0 Y4.8917
G3 X-0.125 Y4.7667 I0 J-0.125
G1 X-0.125 Y0.3917
G3 X0 Y0.2667 I0.125 J0
G1 Z-0.7 F30
G1 X7.4951 Y0.2667 F60
G3 X7.6201 Y0.3917 I0 J0.125
G1 X7.6201 Y2.5718
G3 X7.5011 Y2.6966 I-0.125 J0
G2 X5.6162 Y2.9044 I0.738 J15.3483
G2 X3.8312 Y3.3323 I2.4592 J14.1955
G2 X2.115 Y3.9837 I4.2442 J13.7676
G2 X0.4403 Y4.8733 I6.3572 J13.9894
G3 X0.375 Y4.8917 I-0.0653 J-0.1066
G1 X0 Y4.8917
G3 X-0.125 Y4.7667 I0 J-0.125
G1 X-0.125 Y0.3917
G3 X0 Y0.2667 I0.125 J0
G1 Z-0.8 F30
G1 X7.4951 Y0.2667 F60
G3 X7.6201 Y0.3917 I0 J0.125
G1 X7.6201 Y2.5718
G3 X7.5011 Y2.6966 I-0.125 J0
G2 X5.6162 Y2.9044 I0.738 J15.3483
G2 X3.8312 Y3.3323 I2.4592 J14.1955
G2 X2.115 Y3.9837 I4.2442 J13.7676
G2 X0.4403 Y4.8733 I6.3572 J13.9894
G3 X0.375 Y4.8917 I-0.0653 J-0.1066
G1 X0 Y4.8917
G3 X-0.125 Y4.7667 I0 J-0.125
G1 X-0.125 Y0.3917
G3 X0 Y0.2667 I0.125 J0
G0 Z0.2
M5
M30
